;Generated with Cura_SteamEngine 13.06.4
M140 S50.000000
M109 T0 S195.000000
T0
M190 S50.000000
;Sliced at: Sat 07 Sep 2013 23:44:30
;Basic settings: Layer height: 0.4 Walls: 1 Fill: 20
;Print time: #P_TIME#
;Filament used: #F_AMNT#m #F_WGHT#g
;Filament cost: #F_COST#
G21        ;metric values
G90        ;absolute positioning
M107       ;start with the fan off
;M92 X64.8592 ; calibrate X
M92 X62.4364 ; calibrate X
;M92 Y64.8592 ; calibrate Y
M92 Y61.7272 ; calibrate Y
M92 Z2387.0719 ; calibrate Z
M92 E569 ; calibrate E
G28 X0 Y0  ;move X/Y to min endstops
G28 Z0     ;move Z to min endstops
G1 Z15.0 F9000 ;move the platform down 15mm
G92 E0                  ;zero the extruded length
G1 F200 E3              ;extrude 3mm of feed stock
G92 E0                  ;zero the extruded length again
G1 F9000
M117 Printing...

;total_layers=150
;LAYER:0
M107
G0 F2520 X24.51 Y42.88 Z0.30
;TYPE:SKIRT
G1 F1140 X145.49 Y42.88 E2.84474
G1 X149.74 Y47.13 E2.98595
G1 X149.74 Y122.87 E4.76698
G1 X145.49 Y127.12 E4.90821
G1 X24.51 Y127.12 E7.75295
G1 X20.26 Y122.87 E7.89416
G1 X20.26 Y47.13 E9.67519
G1 X24.51 Y42.88 E9.81638
G0 F2520 X24.72 Y43.38
G1 F1140 X145.28 Y43.38 E12.65134
G1 X149.24 Y47.34 E12.78284
G1 X149.24 Y122.67 E14.55409
G1 X145.28 Y126.62 E14.68560
G1 X24.72 Y126.62 E17.52057
G1 X20.76 Y122.67 E17.65206
G1 X20.76 Y47.34 E19.42331
G1 X24.72 Y43.38 E19.55479
G0 F2520 X24.92 Y43.88
G1 F1140 X145.08 Y43.88 E22.38002
G1 X148.74 Y47.54 E22.50178
G1 X148.74 Y122.46 E24.26329
G1 X145.08 Y126.12 E24.38506
G1 X24.92 Y126.12 E27.21029
G1 X21.26 Y122.46 E27.33204
G1 X21.26 Y47.54 E29.09356
G1 X24.92 Y43.88 E29.21530
G0 F2520 X25.13 Y44.38
G1 F1140 X144.87 Y44.38 E32.03079
G1 X148.24 Y47.75 E32.14280
G1 X148.24 Y122.25 E33.89458
G1 X144.87 Y125.62 E34.00661
G1 X25.13 Y125.62 E36.82210
G1 X21.76 Y122.25 E36.93412
G1 X21.76 Y47.75 E38.68590
G1 X25.13 Y44.38 E38.79789
G0 F2520 X25.34 Y44.88
G1 F1140 X144.66 Y44.88 E41.60365
G1 X147.74 Y47.96 E41.70592
G1 X147.74 Y122.04 E43.44796
G1 X144.66 Y125.12 E43.55025
G1 X25.34 Y125.12 E46.35601
G1 X22.26 Y122.04 E46.45828
G1 X22.26 Y47.96 E48.20032
G1 X25.34 Y44.88 E48.30257
G0 F2520 X25.54 Y45.38
G1 F1140 X144.46 Y45.38 E51.09860
G1 X147.24 Y48.16 E51.19112
G1 X147.24 Y121.84 E52.92344
G1 X144.46 Y124.62 E53.01598
G1 X25.54 Y124.62 E55.81200
G1 X22.76 Y121.84 E55.90453
G1 X22.76 Y48.16 E57.63684
G1 X25.54 Y45.38 E57.72935
G0 F2520 X25.75 Y45.88
G1 F1140 X144.25 Y45.88 E60.51564
G1 X146.74 Y48.37 E60.59842
G1 X146.74 Y121.63 E62.32100
G1 X144.25 Y124.12 E62.40380
G1 X25.75 Y124.12 E65.19009
G1 X23.26 Y121.63 E65.27287
G1 X23.26 Y48.37 E66.99545
G1 X25.75 Y45.88 E67.07821
G0 F2520 X25.96 Y46.38
G1 F1140 X144.04 Y46.38 E69.85477
G1 X146.24 Y48.58 E69.92781
G1 X146.24 Y121.42 E71.64065
G1 X144.04 Y123.62 E71.71371
G1 X25.96 Y123.62 E74.49026
G1 X23.76 Y121.42 E74.56330
G1 X23.76 Y48.58 E76.27614
G1 X25.96 Y46.38 E76.34917
G0 F2520 X26.16 Y46.88
G1 F1140 X143.84 Y46.88 E79.11599
G1 X145.74 Y48.78 E79.17928
G1 X145.74 Y121.22 E80.88239
G1 X143.84 Y123.12 E80.94571
G1 X26.16 Y123.12 E83.71253
G1 X24.26 Y121.22 E83.77582
G1 X24.26 Y48.78 E85.47893
G1 X26.16 Y46.88 E85.54221
G0 F2520 X26.37 Y47.38
G1 F1140 X143.63 Y47.38 E88.29930
G1 X145.24 Y48.99 E88.35285
G1 X145.24 Y121.01 E90.04622
G1 X143.63 Y122.62 E90.09979
G1 X26.37 Y122.62 E92.85688
G1 X24.76 Y121.01 E92.91043
G1 X24.76 Y48.99 E94.60381
G1 X26.37 Y47.38 E94.65734
G0 F2520 X26.58 Y47.88
G1 F1140 X143.42 Y47.88 E97.40465
G1 X144.74 Y49.20 E97.44849
G1 X144.74 Y120.80 E99.13209
G1 X143.42 Y122.12 E99.17595
G1 X26.58 Y122.12 E101.92325
G1 X25.26 Y120.80 E101.96709
G1 X25.26 Y49.20 E103.65069
G1 X26.58 Y47.88 E103.69451
G0 F2520 X26.79 Y48.38
G1 F1140 X143.21 Y48.38 E106.43208
G1 X144.24 Y49.41 E106.46618
G1 X144.24 Y120.59 E108.14004
G1 X143.21 Y121.62 E108.17416
G1 X26.79 Y121.62 E110.91173
G1 X25.76 Y120.59 E110.94583
G1 X25.76 Y49.41 E112.61969
G1 X26.79 Y48.38 E112.65377
G0 F2520 X26.99 Y48.88
G1 F1140 X143.01 Y48.88 E115.38161
G1 X143.74 Y49.61 E115.40597
G1 X143.74 Y120.39 E117.07009
G1 X143.01 Y121.12 E117.09446
G1 X26.99 Y121.12 E119.82230
G1 X26.26 Y120.39 E119.84666
G1 X26.26 Y49.61 E121.51078
G1 X26.99 Y48.88 E121.53512
G0 F2520 X27.20 Y49.38
G1 F1140 X142.80 Y49.38 E124.25322
G1 X143.24 Y49.82 E124.26784
G1 X143.24 Y120.18 E125.92223
G1 X142.80 Y120.62 E125.93686
G1 X27.20 Y120.62 E128.65496
G1 X26.76 Y120.18 E128.66957
G1 X26.76 Y49.82 E130.32396
G1 X27.20 Y49.38 E130.33856
G0 F2520 X27.41 Y49.88
G1 F1140 X142.59 Y49.88 E133.04693
G1 X142.74 Y50.03 E133.05180
G1 X142.74 Y119.97 E134.69645
G1 X142.59 Y120.12 E134.70134
G1 X27.41 Y120.12 E137.40971
G1 X27.26 Y119.97 E137.41458
G1 X27.26 Y50.03 E139.05923
G1 X27.41 Y49.88 E139.06409
G0 F2520 X28.26 Y50.88
;TYPE:WALL-INNER
G1 F1140 X141.74 Y50.88 E141.73232
G1 X141.74 Y119.12 E143.33684
G1 X28.26 Y119.12 E146.00507
G1 X28.26 Y50.88 E147.60958
G0 F2520 X38.40 Y68.25
G1 F1140 X37.96 Y68.69 E147.62418
G1 X37.96 Y101.31 E148.39130
G1 X38.40 Y101.75 E148.40591
G1 X42.02 Y101.75 E148.49106
G1 X42.46 Y101.31 E148.50569
G1 X42.46 Y68.69 E149.27280
G1 X42.02 Y68.25 E149.28742
G1 X38.40 Y68.25 E149.37256
G0 F2520 X41.99 Y68.31
G0 X43.96 Y68.69
G1 F1140 X43.96 Y101.31 E150.13968
G1 X44.40 Y101.75 E150.15429
G1 X48.02 Y101.75 E150.23943
G1 X48.46 Y101.31 E150.25407
G1 X48.46 Y68.69 E151.02118
G1 X48.02 Y68.25 E151.03580
G1 X44.40 Y68.25 E151.12094
G1 X43.96 Y68.69 E151.13554
G0 F2520 X44.43 Y68.31
G0 X47.99 Y68.31
G0 X49.96 Y68.69
G1 F1140 X49.96 Y101.31 E151.90266
G1 X50.40 Y101.75 E151.91727
G1 X54.02 Y101.75 E152.00241
G1 X54.46 Y101.31 E152.01704
G1 X54.46 Y68.69 E152.78416
G1 X54.02 Y68.25 E152.79878
G1 X50.40 Y68.25 E152.88392
G1 X49.96 Y68.69 E152.89851
G0 F2520 X50.43 Y68.31
G0 X53.99 Y68.31
G0 X55.96 Y68.69
G1 F1140 X55.96 Y101.31 E153.66563
G1 X56.40 Y101.75 E153.68025
G1 X60.02 Y101.75 E153.76539
G1 X60.46 Y101.31 E153.78002
G1 X60.46 Y68.69 E154.54714
G1 X60.02 Y68.25 E154.56175
G1 X56.40 Y68.25 E154.64689
G1 X55.96 Y68.69 E154.66149
G0 F2520 X56.43 Y68.31
G0 X59.99 Y68.31
G0 X61.96 Y68.69
G1 F1140 X61.96 Y101.31 E155.42861
G1 X62.40 Y101.75 E155.44322
G1 X66.02 Y101.75 E155.52837
G1 X66.46 Y101.31 E155.54300
G1 X66.46 Y68.69 E156.31011
G1 X66.02 Y68.25 E156.32473
G1 X62.40 Y68.25 E156.40987
G1 X61.96 Y68.69 E156.42447
G0 F2520 X62.43 Y68.31
G0 X65.99 Y68.31
G0 X67.96 Y68.69
G1 F1140 X67.96 Y101.31 E157.19159
G1 X68.40 Y101.75 E157.20620
G1 X72.02 Y101.75 E157.29134
G1 X72.46 Y101.31 E157.30597
G1 X72.46 Y68.69 E158.07309
G1 X72.02 Y68.25 E158.08771
G1 X68.40 Y68.25 E158.17285
G1 X67.96 Y68.69 E158.18744
G0 F2520 X68.43 Y68.31
G0 X71.99 Y68.31
G0 X73.96 Y68.69
G1 F1140 X73.96 Y101.31 E158.95456
G1 X74.40 Y101.75 E158.96918
G1 X78.02 Y101.75 E159.05432
G1 X78.46 Y101.31 E159.06895
G1 X78.46 Y68.69 E159.83607
G1 X78.02 Y68.25 E159.85068
G1 X74.40 Y68.25 E159.93582
G1 X73.96 Y68.69 E159.95042
G0 F2520 X74.43 Y68.31
G0 X77.99 Y68.31
G0 X79.96 Y68.69
G1 F1140 X79.96 Y101.31 E160.71754
G1 X80.40 Y101.75 E160.73215
G1 X84.02 Y101.75 E160.81730
G1 X84.46 Y101.31 E160.83193
G1 X84.46 Y68.69 E161.59904
G1 X84.02 Y68.25 E161.61366
G1 X80.40 Y68.25 E161.69880
G1 X79.96 Y68.69 E161.71340
G0 F2520 X80.43 Y68.31
G0 X83.99 Y68.31
G0 X85.96 Y68.69
G1 F1140 X85.96 Y101.31 E162.48052
G1 X86.40 Y101.75 E162.49513
G1 X90.02 Y101.75 E162.58027
G1 X90.46 Y101.31 E162.59490
G1 X90.46 Y68.69 E163.36202
G1 X90.02 Y68.25 E163.37664
G1 X86.40 Y68.25 E163.46178
G1 X85.96 Y68.69 E163.47638
G0 F2520 X86.46 Y68.89
;TYPE:WALL-OUTER
G1 F1140 X86.46 Y101.11 E164.23376
G1 X86.61 Y101.25 E164.23863
G1 X89.81 Y101.25 E164.31404
G1 X89.96 Y101.11 E164.31893
G1 X89.96 Y68.89 E165.07631
G1 X89.81 Y68.75 E165.08118
G1 X86.61 Y68.75 E165.15659
G1 X86.46 Y68.89 E165.16144
G0 F2520 X86.11 Y68.89
G0 X84.21 Y68.65
G0 X83.96 Y68.89
G1 F1140 X83.81 Y68.75 E165.16631
G1 X80.61 Y68.75 E165.24172
G1 X80.46 Y68.89 E165.24658
G1 X80.46 Y101.11 E166.00396
G1 X80.61 Y101.25 E166.00883
G1 X83.81 Y101.25 E166.08424
G1 X83.96 Y101.11 E166.08913
G1 X83.96 Y68.89 E166.84651
G0 F2520 X84.21 Y68.65
G0 X83.99 Y68.31
G0 X80.43 Y68.31
G0 X78.21 Y68.65
G0 X77.96 Y68.89
G1 F1140 X77.81 Y68.75 E166.85138
G1 X74.61 Y68.75 E166.92679
G1 X74.46 Y68.89 E166.93164
G1 X74.46 Y101.11 E167.68903
G1 X74.61 Y101.25 E167.69390
G1 X77.81 Y101.25 E167.76930
G1 X77.96 Y101.11 E167.77419
G1 X77.96 Y68.89 E168.53158
G0 F2520 X78.21 Y68.65
G0 X77.99 Y68.31
G0 X74.43 Y68.31
G0 X72.21 Y68.65
G0 X71.96 Y68.89
G1 F1140 X71.81 Y68.75 E168.53645
G1 X68.61 Y68.75 E168.61185
G1 X68.46 Y68.89 E168.61671
G1 X68.46 Y101.11 E169.37409
G1 X68.61 Y101.25 E169.37896
G1 X71.81 Y101.25 E169.45437
G1 X71.96 Y101.11 E169.45926
G1 X71.96 Y68.89 E170.21664
G0 F2520 X72.21 Y68.65
G0 X71.99 Y68.31
G0 X68.43 Y68.31
G0 X66.21 Y68.65
G0 X65.96 Y68.89
G1 F1140 X65.81 Y68.75 E170.22151
G1 X62.61 Y68.75 E170.29692
G1 X62.46 Y68.89 E170.30178
G1 X62.46 Y101.11 E171.05916
G1 X62.61 Y101.25 E171.06403
G1 X65.81 Y101.25 E171.13944
G1 X65.96 Y101.11 E171.14433
G1 X65.96 Y68.89 E171.90171
G0 F2520 X66.21 Y68.65
G0 X65.99 Y68.31
G0 X62.43 Y68.31
G0 X60.21 Y68.65
G0 X59.96 Y68.89
G1 F1140 X59.81 Y68.75 E171.90658
G1 X56.61 Y68.75 E171.98199
G1 X56.46 Y68.89 E171.98684
G1 X56.46 Y101.11 E172.74423
G1 X56.61 Y101.25 E172.74910
G1 X59.81 Y101.25 E172.82450
G1 X59.96 Y101.11 E172.82939
G1 X59.96 Y68.89 E173.58678
G0 F2520 X60.21 Y68.65
G0 X59.99 Y68.31
G0 X56.43 Y68.31
G0 X54.21 Y68.65
G0 X53.96 Y68.89
G1 F1140 X53.81 Y68.75 E173.59165
G1 X50.61 Y68.75 E173.66705
G1 X50.46 Y68.89 E173.67191
G1 X50.46 Y101.11 E174.42929
G1 X50.61 Y101.25 E174.43416
G1 X53.81 Y101.25 E174.50957
G1 X53.96 Y101.11 E174.51446
G1 X53.96 Y68.89 E175.27184
G0 F2520 X54.21 Y68.65
G0 X53.99 Y68.31
G0 X50.43 Y68.31
G0 X48.21 Y68.65
G0 X47.96 Y68.89
G1 F1140 X47.81 Y68.75 E175.27671
G1 X44.61 Y68.75 E175.35212
G1 X44.46 Y68.89 E175.35698
G1 X44.46 Y101.11 E176.11436
G1 X44.61 Y101.25 E176.11923
G1 X47.81 Y101.25 E176.19464
G1 X47.96 Y101.11 E176.19953
G1 X47.96 Y68.89 E176.95691
G0 F2520 X48.21 Y68.65
G0 X47.99 Y68.31
G0 X44.43 Y68.31
G0 X42.21 Y68.65
G0 X41.96 Y68.89
G1 F1140 X41.81 Y68.75 E176.96178
G1 X38.61 Y68.75 E177.03719
G1 X38.46 Y68.89 E177.04204
G1 X38.46 Y101.11 E177.79943
G1 X38.61 Y101.25 E177.80430
G1 X41.81 Y101.25 E177.87971
G1 X41.96 Y101.11 E177.88459
G1 X41.96 Y68.89 E178.64198
G0 F2520 X42.21 Y68.65
G0 X28.11 Y50.64
G0 X27.76 Y50.38
G1 F1140 X142.24 Y50.38 E181.33372
G1 X142.24 Y119.62 E182.96175
G1 X27.76 Y119.62 E185.65349
G1 X27.76 Y50.38 E187.28152
G0 F2520 X28.43 Y51.37
;TYPE:FILL
G1 F1140 X45.13 Y68.07 E187.83684
G0 F2520 X44.43 Y68.07
G1 F1140 X28.43 Y52.08 E188.36865
G0 F2520 X28.43 Y52.79
G1 F1140 X44.02 Y68.37 E188.88700
G0 F2520 X43.78 Y68.84
G1 F1140 X28.43 Y53.49 E189.39739
G0 F2520 X28.43 Y54.20
G1 F1140 X43.78 Y69.55 E189.90779
G0 F2520 X43.78 Y70.26
G1 F1140 X42.63 Y69.11 E189.94601
G0 F2520 X42.63 Y69.81
G1 F1140 X43.78 Y70.96 E189.98424
G0 F2520 X43.78 Y71.67
G1 F1140 X42.63 Y70.52 E190.02246
G0 F2520 X42.63 Y71.23
G1 F1140 X43.78 Y72.38 E190.06068
G0 F2520 X43.78 Y73.08
G1 F1140 X42.63 Y71.94 E190.09889
G0 F2520 X42.63 Y72.64
G1 F1140 X43.78 Y73.79 E190.13710
G0 F2520 X43.78 Y74.50
G1 F1140 X42.63 Y73.35 E190.17532
G0 F2520 X42.63 Y74.06
G1 F1140 X43.78 Y75.21 E190.21355
G0 F2520 X43.78 Y75.91
G1 F1140 X42.63 Y74.76 E190.25177
G0 F2520 X42.63 Y75.47
G1 F1140 X43.78 Y76.62 E190.28999
G0 F2520 X43.78 Y77.33
G1 F1140 X42.63 Y76.18 E190.32822
G0 F2520 X42.63 Y76.89
G1 F1140 X43.78 Y78.03 E190.36644
G0 F2520 X43.78 Y78.74
G1 F1140 X42.63 Y77.59 E190.40467
G0 F2520 X42.63 Y78.30
G1 F1140 X43.78 Y79.45 E190.44287
G0 F2520 X43.78 Y80.16
G1 F1140 X42.63 Y79.01 E190.48108
G0 F2520 X42.63 Y79.71
G1 F1140 X43.78 Y80.86 E190.51930
G0 F2520 X43.78 Y81.57
G1 F1140 X42.63 Y80.42 E190.55753
G0 F2520 X42.63 Y81.13
G1 F1140 X43.78 Y82.28 E190.59575
G0 F2520 X43.78 Y82.98
G1 F1140 X42.63 Y81.83 E190.63398
G0 F2520 X42.63 Y82.54
G1 F1140 X43.78 Y83.69 E190.67220
G0 F2520 X43.78 Y84.40
G1 F1140 X42.63 Y83.25 E190.71042
G0 F2520 X42.63 Y83.96
G1 F1140 X43.78 Y85.11 E190.74865
G0 F2520 X43.78 Y85.81
G1 F1140 X42.63 Y84.66 E190.78686
G0 F2520 X42.63 Y85.37
G1 F1140 X43.78 Y86.52 E190.82506
G0 F2520 X43.78 Y87.23
G1 F1140 X42.63 Y86.08 E190.86327
G0 F2520 X42.63 Y86.78
G1 F1140 X43.78 Y87.94 E190.90149
G0 F2520 X43.78 Y88.64
G1 F1140 X42.63 Y87.49 E190.93972
G0 F2520 X42.63 Y88.20
G1 F1140 X43.78 Y89.35 E190.97794
G0 F2520 X43.78 Y90.06
G1 F1140 X42.63 Y88.91 E191.01617
G0 F2520 X42.63 Y89.61
G1 F1140 X43.78 Y90.76 E191.05439
G0 F2520 X43.78 Y91.47
G1 F1140 X42.63 Y90.32 E191.09261
G0 F2520 X42.63 Y91.03
G1 F1140 X43.78 Y92.18 E191.13084
G0 F2520 X43.78 Y92.88
G1 F1140 X42.63 Y91.73 E191.16905
G0 F2520 X42.63 Y92.44
G1 F1140 X43.78 Y93.59 E191.20725
G0 F2520 X43.78 Y94.30
G1 F1140 X42.63 Y93.15 E191.24548
G0 F2520 X42.63 Y93.86
G1 F1140 X43.78 Y95.01 E191.28370
G0 F2520 X43.78 Y95.71
G1 F1140 X42.63 Y94.56 E191.32192
G0 F2520 X42.63 Y95.27
G1 F1140 X43.78 Y96.42 E191.36015
G0 F2520 X43.78 Y97.13
G1 F1140 X42.63 Y95.98 E191.39837
G0 F2520 X42.63 Y96.68
G1 F1140 X43.78 Y97.83 E191.43660
G0 F2520 X43.78 Y98.54
G1 F1140 X42.63 Y97.39 E191.47482
G0 F2520 X42.63 Y98.10
G1 F1140 X43.78 Y99.25 E191.51303
G0 F2520 X43.78 Y99.95
G1 F1140 X42.63 Y98.81 E191.55124
G0 F2520 X42.63 Y99.51
G1 F1140 X43.78 Y100.66 E191.58946
G0 F2520 X43.80 Y101.39
G1 F1140 X42.63 Y100.22 E191.62827
G0 F2520 X42.63 Y100.93
G1 F1140 X60.65 Y118.94 E192.22738
G0 F2520 X61.36 Y118.94
G1 F1140 X44.33 Y101.91 E192.79379
G0 F2520 X45.05 Y101.93
G1 F1140 X62.07 Y118.94 E193.35968
G0 F2520 X62.77 Y118.94
G1 F1140 X45.76 Y101.93 E193.92558
G0 F2520 X46.46 Y101.93
G1 F1140 X63.48 Y118.94 E194.49147
G0 F2520 X64.19 Y118.94
G1 F1140 X47.17 Y101.93 E195.05736
G0 F2520 X47.88 Y101.93
G1 F1140 X64.89 Y118.94 E195.62326
G0 F2520 X65.60 Y118.94
G1 F1140 X48.34 Y101.68 E196.19733
G0 F2520 X48.63 Y101.27
G1 F1140 X66.31 Y118.94 E196.78504
G0 F2520 X67.02 Y118.94
G1 F1140 X48.63 Y100.56 E197.39628
G0 F2520 X48.63 Y99.86
G1 F1140 X49.78 Y101.01 E197.43453
G0 F2520 X49.78 Y100.30
G1 F1140 X48.63 Y99.15 E197.47279
G0 F2520 X48.63 Y98.44
G1 F1140 X49.78 Y99.59 E197.51106
G0 F2520 X49.78 Y98.89
G1 F1140 X48.63 Y97.73 E197.54934
G0 F2520 X48.63 Y97.03
G1 F1140 X49.78 Y98.18 E197.58761
G0 F2520 X49.78 Y97.47
G1 F1140 X48.63 Y96.32 E197.62588
G0 F2520 X48.63 Y95.61
G1 F1140 X49.78 Y96.76 E197.66416
G0 F2520 X49.78 Y96.06
G1 F1140 X48.63 Y94.91 E197.70242
G0 F2520 X48.63 Y94.20
G1 F1140 X49.78 Y95.35 E197.74067
G0 F2520 X49.78 Y94.64
G1 F1140 X48.63 Y93.49 E197.77893
G0 F2520 X48.63 Y92.78
G1 F1140 X49.78 Y93.94 E197.81719
G0 F2520 X49.78 Y93.23
G1 F1140 X48.63 Y92.08 E197.85544
G0 F2520 X48.63 Y91.37
G1 F1140 X49.78 Y92.52 E197.89372
G0 F2520 X49.78 Y91.81
G1 F1140 X48.63 Y90.66 E197.93199
G0 F2520 X48.63 Y89.96
G1 F1140 X49.78 Y91.11 E197.97027
G0 F2520 X49.78 Y90.40
G1 F1140 X48.63 Y89.25 E198.00854
G0 F2520 X48.63 Y88.54
G1 F1140 X49.78 Y89.69 E198.04680
G0 F2520 X49.78 Y88.98
G1 F1140 X48.63 Y87.83 E198.08505
G0 F2520 X48.63 Y87.13
G1 F1140 X49.78 Y88.28 E198.12331
G0 F2520 X49.78 Y87.57
G1 F1140 X48.63 Y86.42 E198.16157
G0 F2520 X48.63 Y85.71
G1 F1140 X49.78 Y86.86 E198.19983
G0 F2520 X49.78 Y86.16
G1 F1140 X48.63 Y85.01 E198.23810
G0 F2520 X48.63 Y84.30
G1 F1140 X49.78 Y85.45 E198.27637
G0 F2520 X49.78 Y84.74
G1 F1140 X48.63 Y83.59 E198.31465
G0 F2520 X48.63 Y82.89
G1 F1140 X49.78 Y84.04 E198.35292
G0 F2520 X49.78 Y83.33
G1 F1140 X48.63 Y82.18 E198.39118
G0 F2520 X48.63 Y81.47
G1 F1140 X49.78 Y82.62 E198.42944
G0 F2520 X49.78 Y81.91
G1 F1140 X48.63 Y80.76 E198.46769
G0 F2520 X48.63 Y80.06
G1 F1140 X49.78 Y81.21 E198.50595
G0 F2520 X49.78 Y80.50
G1 F1140 X48.63 Y79.35 E198.54421
G0 F2520 X48.63 Y78.64
G1 F1140 X49.78 Y79.79 E198.58246
G0 F2520 X49.78 Y79.09
G1 F1140 X48.63 Y77.94 E198.62074
G0 F2520 X48.63 Y77.23
G1 F1140 X49.78 Y78.38 E198.65901
G0 F2520 X49.78 Y77.67
G1 F1140 X48.63 Y76.52 E198.69729
G0 F2520 X48.63 Y75.81
G1 F1140 X49.78 Y76.97 E198.73556
G0 F2520 X49.78 Y76.26
G1 F1140 X48.63 Y75.11 E198.77382
G0 F2520 X48.63 Y74.40
