;Generated with Cura_SteamEngine 13.06.4
M140 S50.000000
M109 T0 S195.000000
T0
M190 S50.000000
;Sliced at: Sat 07 Sep 2013 21:07:38
;Basic settings: Layer height: 0.4 Walls: 1 Fill: 20
;Print time: #P_TIME#
;Filament used: #F_AMNT#m #F_WGHT#g
;Filament cost: #F_COST#
G21        ;metric values
G90        ;absolute positioning
M107       ;start with the fan off
;M92 X64.8592 ; calibrate X
M92 X62.4364 ; calibrate X
;M92 Y64.8592 ; calibrate Y
M92 Y61.7272 ; calibrate Y
M92 Z2387.0719 ; calibrate Z
M92 E569 ; calibrate E
G28 X0 Y0  ;move X/Y to min endstops
G28 Z0     ;move Z to min endstops
G1 Z15.0 F9000 ;move the platform down 15mm
G92 E0                  ;zero the extruded length
G1 F200 E3              ;extrude 3mm of feed stock
G92 E0                  ;zero the extruded length again
G1 F9000
M117 Printing...

;total_layers=23
;LAYER:0
M107
G0 F2520 X24.71 Y43.08 Z0.30
;TYPE:SKIRT
G1 F1140 X145.29 Y43.08 E2.83539
G1 X149.54 Y47.33 E2.97659
G1 X149.54 Y122.67 E4.74822
G1 X145.29 Y126.92 E4.88944
G1 X24.71 Y126.92 E7.72483
G1 X20.46 Y122.67 E7.86604
G1 X20.46 Y47.33 E9.63766
G1 X24.71 Y43.08 E9.77885
G0 F2520 X24.91 Y43.58
G1 F1140 X145.09 Y43.58 E12.60446
G1 X149.04 Y47.53 E12.73595
G1 X149.04 Y122.46 E14.49780
G1 X145.09 Y126.42 E14.62931
G1 X24.91 Y126.42 E17.45492
G1 X20.96 Y122.46 E17.58641
G1 X20.96 Y47.53 E19.34826
G1 X24.91 Y43.58 E19.47974
G0 F2520 X25.12 Y44.08
G1 F1140 X144.88 Y44.08 E22.29561
G1 X148.54 Y47.74 E22.41736
G1 X148.54 Y122.26 E24.16947
G1 X144.88 Y125.92 E24.29124
G1 X25.12 Y125.92 E27.10711
G1 X21.46 Y122.26 E27.22887
G1 X21.46 Y47.74 E28.98098
G1 X25.12 Y44.08 E29.10272
G0 F2520 X25.33 Y44.58
G1 F1140 X144.67 Y44.58 E31.90885
G1 X148.04 Y47.95 E32.02086
G1 X148.04 Y122.05 E33.76324
G1 X144.67 Y125.42 E33.87527
G1 X25.33 Y125.42 E36.68140
G1 X21.96 Y122.05 E36.79341
G1 X21.96 Y47.95 E38.53579
G1 X25.33 Y44.58 E38.64778
G0 F2520 X25.54 Y45.08
G1 F1140 X144.46 Y45.08 E41.44418
G1 X147.54 Y48.16 E41.54645
G1 X147.54 Y121.84 E43.27909
G1 X144.46 Y124.92 E43.38138
G1 X25.54 Y124.92 E46.17778
G1 X22.46 Y121.84 E46.28005
G1 X22.46 Y48.16 E48.01269
G1 X25.54 Y45.08 E48.11494
G0 F2520 X25.74 Y45.58
G1 F1140 X144.26 Y45.58 E50.90161
G1 X147.04 Y48.36 E50.99413
G1 X147.04 Y121.64 E52.71704
G1 X144.26 Y124.42 E52.80958
G1 X25.74 Y124.42 E55.59625
G1 X22.96 Y121.64 E55.68877
G1 X22.96 Y48.36 E57.41168
G1 X25.74 Y45.58 E57.50419
G0 F2520 X25.95 Y46.08
G1 F1140 X144.05 Y46.08 E60.28112
G1 X146.54 Y48.57 E60.36390
G1 X146.54 Y121.43 E62.07707
G1 X144.05 Y123.92 E62.15987
G1 X25.95 Y123.92 E64.93680
G1 X23.46 Y121.43 E65.01959
G1 X23.46 Y48.57 E66.73276
G1 X25.95 Y46.08 E66.81552
G0 F2520 X26.16 Y46.58
G1 F1140 X143.84 Y46.58 E69.58272
G1 X146.04 Y48.78 E69.65576
G1 X146.04 Y121.22 E71.35920
G1 X143.84 Y123.42 E71.43225
G1 X26.16 Y123.42 E74.19945
G1 X23.96 Y121.22 E74.27249
G1 X23.96 Y48.78 E75.97593
G1 X26.16 Y46.58 E76.04895
G0 F2520 X26.36 Y47.08
G1 F1140 X143.64 Y47.08 E78.80641
G1 X145.54 Y48.98 E78.86971
G1 X145.54 Y121.02 E80.56341
G1 X143.64 Y122.92 E80.62673
G1 X26.36 Y122.92 E83.38419
G1 X24.46 Y121.02 E83.44748
G1 X24.46 Y48.98 E85.14119
G1 X26.36 Y47.08 E85.20447
G0 F2520 X26.57 Y47.58
G1 F1140 X143.43 Y47.58 E87.95220
G1 X145.04 Y49.19 E88.00575
G1 X145.04 Y120.81 E89.68972
G1 X143.43 Y122.42 E89.74329
G1 X26.57 Y122.42 E92.49102
G1 X24.96 Y120.81 E92.54457
G1 X24.96 Y49.19 E94.22854
G1 X26.57 Y47.58 E94.28207
G0 F2520 X26.78 Y48.08
G1 F1140 X143.22 Y48.08 E97.02002
G1 X144.54 Y49.40 E97.06386
G1 X144.54 Y120.60 E98.73805
G1 X143.22 Y121.92 E98.78191
G1 X26.78 Y121.92 E101.51986
G1 X25.46 Y120.60 E101.56370
G1 X25.46 Y49.40 E103.23789
G1 X26.78 Y48.08 E103.28172
G0 F2520 X26.98 Y48.58
G1 F1140 X143.01 Y48.58 E106.00993
G1 X144.04 Y49.60 E106.04403
G1 X144.04 Y120.39 E107.70848
G1 X143.01 Y121.42 E107.74260
G1 X26.98 Y121.42 E110.47081
G1 X25.96 Y120.39 E110.50491
G1 X25.96 Y49.60 E112.16936
G1 X26.98 Y48.58 E112.20345
G0 F2520 X27.19 Y49.08
G1 F1140 X142.81 Y49.08 E114.92193
G1 X143.54 Y49.81 E114.94628
G1 X143.54 Y120.19 E116.60100
G1 X142.81 Y120.92 E116.62538
G1 X27.19 Y120.92 E119.34385
G1 X26.46 Y120.19 E119.36821
G1 X26.46 Y49.81 E121.02293
G1 X27.19 Y49.08 E121.04727
G0 F2520 X27.40 Y49.58
G1 F1140 X142.60 Y49.58 E123.75601
G1 X143.04 Y50.02 E123.77063
G1 X143.04 Y119.98 E125.41561
G1 X142.60 Y120.42 E125.43024
G1 X27.40 Y120.42 E128.13899
G1 X26.96 Y119.98 E128.15360
G1 X26.96 Y50.02 E129.79858
G1 X27.40 Y49.58 E129.81318
G0 F2520 X27.61 Y50.08
G1 F1140 X142.39 Y50.08 E132.51219
G1 X142.54 Y50.23 E132.51706
G1 X142.54 Y119.77 E134.15231
G1 X142.39 Y119.92 E134.15720
G1 X27.61 Y119.92 E136.85621
G1 X27.46 Y119.77 E136.86108
G1 X27.46 Y50.23 E138.49633
G1 X27.61 Y50.08 E138.50118
G0 F2520 X28.46 Y51.08
;TYPE:WALL-INNER
G1 F1140 X141.54 Y51.08 E141.16006
G1 X141.54 Y118.92 E142.75517
G1 X28.46 Y118.92 E145.41404
G1 X28.46 Y51.08 E147.00915
G0 F2520 X45.40 Y68.25
G1 F1140 X44.96 Y68.69 E147.02375
G1 X44.96 Y101.31 E147.79087
G1 X45.40 Y101.75 E147.80548
G1 X49.02 Y101.75 E147.89062
G1 X49.46 Y101.31 E147.90525
G1 X49.46 Y68.69 E148.67237
G1 X49.02 Y68.25 E148.68699
G1 X45.40 Y68.25 E148.77213
G0 F2520 X48.99 Y68.31
G0 X50.96 Y68.69
G1 F1140 X50.96 Y101.31 E149.53925
G1 X51.40 Y101.75 E149.55386
G1 X55.02 Y101.75 E149.63900
G1 X55.46 Y101.31 E149.65363
G1 X55.46 Y68.69 E150.42075
G1 X55.02 Y68.25 E150.43537
G1 X51.40 Y68.25 E150.52051
G1 X50.96 Y68.69 E150.53510
G0 F2520 X51.43 Y68.31
G0 X54.99 Y68.31
G0 X56.96 Y68.69
G1 F1140 X56.96 Y101.31 E151.30222
G1 X57.40 Y101.75 E151.31684
G1 X61.02 Y101.75 E151.40198
G1 X61.46 Y101.31 E151.41661
G1 X61.46 Y68.69 E152.18373
G1 X61.02 Y68.25 E152.19834
G1 X57.40 Y68.25 E152.28348
G1 X56.96 Y68.69 E152.29808
G0 F2520 X57.43 Y68.31
G0 X60.99 Y68.31
G0 X62.96 Y68.69
G1 F1140 X62.96 Y101.31 E153.06520
G1 X63.40 Y101.75 E153.07981
G1 X67.02 Y101.75 E153.16496
G1 X67.46 Y101.31 E153.17959
G1 X67.46 Y68.69 E153.94670
G1 X67.02 Y68.25 E153.96132
G1 X63.40 Y68.25 E154.04646
G1 X62.96 Y68.69 E154.06106
G0 F2520 X63.43 Y68.31
G0 X66.99 Y68.31
G0 X68.96 Y68.69
G1 F1140 X68.96 Y101.31 E154.82818
G1 X69.40 Y101.75 E154.84279
G1 X73.02 Y101.75 E154.92793
G1 X73.46 Y101.31 E154.94256
G1 X73.46 Y68.69 E155.70968
G1 X73.02 Y68.25 E155.72430
G1 X69.40 Y68.25 E155.80944
G1 X68.96 Y68.69 E155.82404
G0 F2520 X69.43 Y68.31
G0 X72.99 Y68.31
G0 X74.96 Y68.69
G1 F1140 X74.96 Y101.31 E156.59115
G1 X75.40 Y101.75 E156.60577
G1 X79.02 Y101.75 E156.69091
G1 X79.46 Y101.31 E156.70554
G1 X79.46 Y68.69 E157.47266
G1 X79.02 Y68.25 E157.48727
G1 X75.40 Y68.25 E157.57241
G1 X74.96 Y68.69 E157.58701
G0 F2520 X75.43 Y68.31
G0 X78.99 Y68.31
G0 X80.96 Y68.69
G1 F1140 X80.96 Y101.31 E158.35413
G1 X81.40 Y101.75 E158.36874
G1 X85.02 Y101.75 E158.45389
G1 X85.46 Y101.31 E158.46852
G1 X85.46 Y68.69 E159.23563
G1 X85.02 Y68.25 E159.25025
G1 X81.40 Y68.25 E159.33539
G1 X80.96 Y68.69 E159.34999
G0 F2520 X81.43 Y68.31
G0 X84.99 Y68.31
G0 X86.96 Y68.69
G1 F1140 X86.96 Y101.31 E160.11711
G1 X87.40 Y101.75 E160.13172
G1 X91.02 Y101.75 E160.21686
G1 X91.46 Y101.31 E160.23149
G1 X91.46 Y68.69 E160.99861
G1 X91.02 Y68.25 E161.01323
G1 X87.40 Y68.25 E161.09837
G1 X86.96 Y68.69 E161.11297
G0 F2520 X87.43 Y68.31
G0 X90.99 Y68.31
G0 X92.96 Y68.69
G1 F1140 X92.96 Y101.31 E161.88008
G1 X93.40 Y101.75 E161.89470
G1 X97.02 Y101.75 E161.97984
G1 X97.46 Y101.31 E161.99447
G1 X97.46 Y68.69 E162.76159
G1 X97.02 Y68.25 E162.77620
G1 X93.40 Y68.25 E162.86134
G1 X92.96 Y68.69 E162.87594
G0 F2520 X93.46 Y68.89
;TYPE:WALL-OUTER
G1 F1140 X93.46 Y101.11 E163.63333
G1 X93.61 Y101.25 E163.63820
G1 X96.81 Y101.25 E163.71360
G1 X96.96 Y101.11 E163.71849
G1 X96.96 Y68.89 E164.47588
G1 X96.81 Y68.75 E164.48075
G1 X93.61 Y68.75 E164.55615
G1 X93.46 Y68.89 E164.56101
G0 F2520 X93.11 Y68.89
G0 X91.21 Y68.65
G0 X90.96 Y68.89
G1 F1140 X90.81 Y68.75 E164.56588
G1 X87.61 Y68.75 E164.64129
G1 X87.46 Y68.89 E164.64614
G1 X87.46 Y101.11 E165.40353
G1 X87.61 Y101.25 E165.40840
G1 X90.81 Y101.25 E165.48380
G1 X90.96 Y101.11 E165.48869
G1 X90.96 Y68.89 E166.24608
G0 F2520 X91.21 Y68.65
G0 X90.99 Y68.31
G0 X87.43 Y68.31
G0 X85.21 Y68.65
G0 X84.96 Y68.89
G1 F1140 X84.81 Y68.75 E166.25095
G1 X81.61 Y68.75 E166.32635
G1 X81.46 Y68.89 E166.33121
G1 X81.46 Y101.11 E167.08859
G1 X81.61 Y101.25 E167.09346
G1 X84.81 Y101.25 E167.16887
G1 X84.96 Y101.11 E167.17376
G1 X84.96 Y68.89 E167.93114
G0 F2520 X85.21 Y68.65
G0 X84.99 Y68.31
G0 X81.43 Y68.31
G0 X79.21 Y68.65
G0 X78.96 Y68.89
G1 F1140 X78.81 Y68.75 E167.93601
G1 X75.61 Y68.75 E168.01142
G1 X75.46 Y68.89 E168.01628
G1 X75.46 Y101.11 E168.77366
G1 X75.61 Y101.25 E168.77853
G1 X78.81 Y101.25 E168.85394
G1 X78.96 Y101.11 E168.85883
G1 X78.96 Y68.89 E169.61621
G0 F2520 X79.21 Y68.65
G0 X78.99 Y68.31
G0 X75.43 Y68.31
G0 X73.21 Y68.65
G0 X72.96 Y68.89
G1 F1140 X72.81 Y68.75 E169.62108
G1 X69.61 Y68.75 E169.69649
G1 X69.46 Y68.89 E169.70134
G1 X69.46 Y101.11 E170.45873
G1 X69.61 Y101.25 E170.46360
G1 X72.81 Y101.25 E170.53900
G1 X72.96 Y101.11 E170.54389
G1 X72.96 Y68.89 E171.30128
G0 F2520 X73.21 Y68.65
G0 X72.99 Y68.31
G0 X69.43 Y68.31
G0 X67.21 Y68.65
G0 X66.96 Y68.89
G1 F1140 X66.81 Y68.75 E171.30615
G1 X63.61 Y68.75 E171.38155
G1 X63.46 Y68.89 E171.38641
G1 X63.46 Y101.11 E172.14379
G1 X63.61 Y101.25 E172.14866
G1 X66.81 Y101.25 E172.22407
G1 X66.96 Y101.11 E172.22896
G1 X66.96 Y68.89 E172.98634
G0 F2520 X67.21 Y68.65
G0 X66.99 Y68.31
G0 X63.43 Y68.31
G0 X61.21 Y68.65
G0 X60.96 Y68.89
G1 F1140 X60.81 Y68.75 E172.99122
G1 X57.61 Y68.75 E173.06662
G1 X57.46 Y68.89 E173.07148
G1 X57.46 Y101.11 E173.82886
G1 X57.61 Y101.25 E173.83373
G1 X60.81 Y101.25 E173.90914
G1 X60.96 Y101.11 E173.91403
G1 X60.96 Y68.89 E174.67141
G0 F2520 X61.21 Y68.65
G0 X60.99 Y68.31
G0 X57.43 Y68.31
G0 X55.21 Y68.65
G0 X54.96 Y68.89
G1 F1140 X54.81 Y68.75 E174.67628
G1 X51.61 Y68.75 E174.75169
G1 X51.46 Y68.89 E174.75654
G1 X51.46 Y101.11 E175.51393
G1 X51.61 Y101.25 E175.51880
G1 X54.81 Y101.25 E175.59421
G1 X54.96 Y101.11 E175.59909
G1 X54.96 Y68.89 E176.35648
G0 F2520 X55.21 Y68.65
G0 X54.99 Y68.31
G0 X51.43 Y68.31
G0 X49.21 Y68.65
G0 X48.96 Y68.89
G1 F1140 X48.81 Y68.75 E176.36135
G1 X45.61 Y68.75 E176.43676
G1 X45.46 Y68.89 E176.44161
G1 X45.46 Y101.11 E177.19899
G1 X45.61 Y101.25 E177.20387
G1 X48.81 Y101.25 E177.27927
G1 X48.96 Y101.11 E177.28416
G1 X48.96 Y68.89 E178.04154
G0 F2520 X49.21 Y68.65
G0 X28.31 Y50.84
G0 X27.96 Y50.58
G1 F1140 X142.04 Y50.58 E180.72393
G1 X142.04 Y119.42 E182.34255
G1 X27.96 Y119.42 E185.02494
G1 X27.96 Y50.58 E186.64356
G0 F2520 X28.72 Y51.25
;TYPE:FILL
G1 F1140 X45.53 Y68.07 E187.20277
G0 F2520 X45.08 Y68.32
G1 F1140 X28.63 Y51.88 E187.74950
G0 F2520 X28.63 Y52.59
G1 F1140 X44.78 Y68.74 E188.28655
G0 F2520 X44.78 Y69.44
G1 F1140 X28.63 Y53.29 E188.82359
G0 F2520 X28.63 Y54.00
G1 F1140 X44.78 Y70.15 E189.36064
G0 F2520 X44.78 Y70.86
G1 F1140 X28.63 Y54.71 E189.89769
G0 F2520 X28.63 Y55.41
G1 F1140 X44.78 Y71.56 E190.43474
G0 F2520 X44.78 Y72.27
G1 F1140 X28.63 Y56.12 E190.97178
G0 F2520 X28.63 Y56.83
G1 F1140 X44.78 Y72.98 E191.50885
G0 F2520 X44.78 Y73.69
G1 F1140 X28.63 Y57.53 E192.04591
G0 F2520 X28.63 Y58.24
G1 F1140 X44.78 Y74.39 E192.58298
G0 F2520 X44.78 Y75.10
G1 F1140 X28.63 Y58.95 E193.12002
G0 F2520 X28.63 Y59.66
G1 F1140 X44.78 Y75.81 E193.65707
G0 F2520 X44.78 Y76.51
G1 F1140 X28.63 Y60.36 E194.19412
G0 F2520 X28.63 Y61.07
G1 F1140 X44.78 Y77.22 E194.73117
G0 F2520 X44.78 Y77.93
G1 F1140 X28.63 Y61.78 E195.26821
G0 F2520 X28.63 Y62.48
G1 F1140 X44.78 Y78.64 E195.80526
G0 F2520 X44.78 Y79.34
G1 F1140 X28.63 Y63.19 E196.34232
G0 F2520 X28.63 Y63.90
G1 F1140 X44.78 Y80.05 E196.87939
G0 F2520 X44.78 Y80.76
G1 F1140 X28.63 Y64.61 E197.41645
G0 F2520 X28.63 Y65.31
G1 F1140 X44.78 Y81.46 E197.95350
G0 F2520 X44.78 Y82.17
G1 F1140 X28.63 Y66.02 E198.49055
G0 F2520 X28.63 Y66.73
G1 F1140 X44.78 Y82.88 E199.02759
G0 F2520 X44.78 Y83.58
G1 F1140 X28.63 Y67.44 E199.56464
G0 F2520 X28.63 Y68.14
G1 F1140 X44.78 Y84.29 E200.10169
G0 F2520 X44.78 Y85.00
G1 F1140 X28.63 Y68.85 E200.63874
G0 F2520 X28.63 Y69.56
G1 F1140 X44.78 Y85.71 E201.17578
G0 F2520 X44.78 Y86.41
G1 F1140 X28.63 Y70.26 E201.71285
G0 F2520 X28.63 Y70.97
G1 F1140 X44.78 Y87.12 E202.24991
G0 F2520 X44.78 Y87.83
G1 F1140 X28.63 Y71.68 E202.78696
G0 F2520 X28.63 Y72.39
G1 F1140 X44.78 Y88.53 E203.32401
G0 F2520 X44.78 Y89.24
G1 F1140 X28.63 Y73.09 E203.86105
G0 F2520 X28.63 Y73.80
G1 F1140 X44.78 Y89.95 E204.39810
G0 F2520 X44.78 Y90.66
G1 F1140 X28.63 Y74.51 E204.93515
G0 F2520 X28.63 Y75.21
G1 F1140 X44.78 Y91.36 E205.47220
G0 F2520 X44.78 Y92.07
G1 F1140 X28.63 Y75.92 E206.00924
G0 F2520 X28.63 Y76.63
G1 F1140 X44.78 Y92.78 E206.54631
G0 F2520 X44.78 Y93.48
G1 F1140 X28.63 Y77.33 E207.08337
G0 F2520 X28.63 Y78.04
G1 F1140 X44.78 Y94.19 E207.62044
G0 F2520 X44.78 Y94.90
G1 F1140 X28.63 Y78.75 E208.15748
G0 F2520 X28.63 Y79.46
G1 F1140 X44.78 Y95.61 E208.69453
G0 F2520 X44.78 Y96.31
G1 F1140 X28.63 Y80.16 E209.23158
G0 F2520 X28.63 Y80.87
G1 F1140 X44.78 Y97.02 E209.76863
G0 F2520 X44.78 Y97.73
G1 F1140 X28.63 Y81.58 E210.30567
G0 F2520 X28.63 Y82.28
G1 F1140 X44.78 Y98.43 E210.84272
G0 F2520 X44.78 Y99.14
G1 F1140 X28.63 Y82.99 E211.37978
G0 F2520 X28.63 Y83.70
G1 F1140 X44.78 Y99.85 E211.91685
G0 F2520 X44.78 Y100.56
G1 F1140 X28.63 Y84.41 E212.45391
G0 F2520 X28.63 Y85.11
G1 F1140 X44.78 Y101.26 E212.99096
G0 F2520 X45.45 Y101.93
G1 F1140 X62.27 Y118.74 E213.55017
G0 F2520 X61.56 Y118.74
G1 F1140 X28.63 Y85.82 E214.64496
G0 F2520 X28.63 Y86.53
G1 F1140 X60.85 Y118.74 E215.71625
G0 F2520 X60.14 Y118.74
G1 F1140 X28.63 Y87.23 E216.76403
G0 F2520 X28.63 Y87.94
G1 F1140 X59.44 Y118.74 E217.78829
G0 F2520 X58.73 Y118.74
G1 F1140 X28.63 Y88.65 E218.78905
G0 F2520 X28.63 Y89.36
G1 F1140 X58.02 Y118.74 E219.76629
G0 F2520 X57.31 Y118.74
G1 F1140 X28.63 Y90.06 E220.72001
G0 F2520 X28.63 Y90.77
G1 F1140 X56.61 Y118.74 E221.65022
G0 F2520 X55.90 Y118.74
G1 F1140 X28.63 Y91.48 E222.55692
G0 F2520 X28.63 Y92.18
G1 F1140 X55.19 Y118.74 E223.44010
G0 F2520 X54.49 Y118.74
G1 F1140 X28.63 Y92.89 E224.29976
G0 F2520 X28.63 Y93.60
G1 F1140 X53.78 Y118.74 E225.13592
G0 F2520 X53.07 Y118.74
G1 F1140 X28.63 Y94.31 E225.94857
G0 F2520 X28.63 Y95.01
G1 F1140 X52.37 Y118.74 E226.73770
G0 F2520 X51.66 Y118.74
G1 F1140 X28.63 Y95.72 E227.50333
G0 F2520 X28.63 Y96.43
G1 F1140 X50.95 Y118.74 E228.24543
G0 F2520 X50.24 Y118.74
G1 F1140 X28.63 Y97.13 E228.96402
G0 F2520 X28.63 Y97.84
G1 F1140 X49.54 Y118.74 E229.65910
G0 F2520 X48.83 Y118.74
G1 F1140 X28.63 Y98.55 E230.33065
G0 F2520 X28.63 Y99.25
G1 F1140 X48.12 Y118.74 E230.97870
G0 F2520 X47.42 Y118.74
G1 F1140 X28.63 Y99.96 E231.60323
G0 F2520 X28.63 Y100.67
G1 F1140 X46.71 Y118.74 E232.20426
G0 F2520 X46.00 Y118.74
G1 F1140 X28.63 Y101.38 E232.78177
G0 F2520 X28.63 Y102.08
G1 F1140 X45.30 Y118.74 E233.33578
G0 F2520 X44.59 Y118.74
G1 F1140 X28.63 Y102.79 E233.86628
G0 F2520 X28.63 Y103.50
G1 F1140 X43.88 Y118.74 E234.37325
G0 F2520 X43.17 Y118.74
G1 F1140 X28.63 Y104.20 E234.85671
G0 F2520 X28.63 Y104.91
G1 F1140 X42.47 Y118.74 E235.31664
G0 F2520 X41.76 Y118.74
G1 F1140 X28.63 Y105.62 E235.75307
G0 F2520 X28.63 Y106.33
G1 F1140 X41.05 Y118.74 E236.16598
G0 F2520 X40.34 Y118.74
G1 F1140 X28.63 Y107.03 E236.55539
G0 F2520 X28.63 Y107.74
G1 F1140 X39.64 Y118.74 E236.92128
G0 F2520 X38.93 Y118.74
G1 F1140 X28.63 Y108.45 E237.26367
G0 F2520 X28.63 Y109.15
G1 F1140 X38.22 Y118.74 E237.58255
G0 F2520 X37.52 Y118.74
G1 F1140 X28.63 Y109.86 E237.87790
G0 F2520 X28.63 Y110.57
G1 F1140 X36.81 Y118.74 E238.14974
G0 F2520 X36.10 Y118.74
G1 F1140 X28.63 Y111.28 E238.39807
G0 F2520 X28.63 Y111.98
G1 F1140 X35.40 Y118.74 E238.62287
G0 F2520 X34.69 Y118.74
G1 F1140 X28.63 Y112.69 E238.82417
G0 F2520 X28.63 Y113.40
G1 F1140 X33.98 Y118.74 E239.00195
G0 F2520 X33.27 Y118.74
G1 F1140 X28.63 Y114.10 E239.15623
G0 F2520 X28.63 Y114.81
G1 F1140 X32.57 Y118.74 E239.28700
G0 F2520 X31.86 Y118.74
G1 F1140 X28.63 Y115.52 E239.39425
G0 F2520 X28.63 Y116.22
G1 F1140 X31.15 Y118.74 E239.47800
G0 F2520 X30.45 Y118.74
G1 F1140 X28.63 Y116.93 E239.53822
G0 F2520 X28.63 Y117.64
