;Generated with Cura_SteamEngine 13.06.4
M140 S50.000000
M109 T0 S195.000000
T0
M190 S50.000000
;Sliced at: Sat 07 Sep 2013 16:36:53
;Basic settings: Layer height: 0.4 Walls: 1 Fill: 20
;Print time: #P_TIME#
;Filament used: #F_AMNT#m #F_WGHT#g
;Filament cost: #F_COST#
G21        ;metric values
G90        ;absolute positioning
M107       ;start with the fan off
;M92 X64.8592 ; calibrate X
M92 X62.4364 ; calibrate X
;M92 Y64.8592 ; calibrate Y
M92 Y61.7272 ; calibrate Y
M92 Z2387.0719 ; calibrate Z
M92 E569 ; calibrate E
G28 X0 Y0  ;move X/Y to min endstops
G28 Z0     ;move Z to min endstops
G1 Z15.0 F9000 ;move the platform down 15mm
G92 E0                  ;zero the extruded length
G1 F200 E3              ;extrude 3mm of feed stock
G92 E0                  ;zero the extruded length again
G1 F9000
M117 Printing...

;total_layers=50
;LAYER:0
M107
G0 F2520 X34.71 Y48.08 Z0.30
;TYPE:SKIRT
G1 F1140 X135.29 Y48.08 E2.83815
G1 X139.54 Y52.33 E3.00760
G1 X139.54 Y117.67 E4.85142
G1 X135.29 Y121.92 E5.02088
G1 X34.71 Y121.92 E7.85903
G1 X30.46 Y117.67 E8.02848
G1 X30.46 Y52.33 E9.87230
G1 X34.71 Y48.08 E10.04173
G0 F2520 X34.91 Y48.58
G1 F1140 X135.09 Y48.58 E12.86814
G1 X139.04 Y52.53 E13.02593
G1 X139.04 Y117.47 E14.85802
G1 X135.09 Y121.42 E15.01583
G1 X34.91 Y121.42 E17.84224
G1 X30.96 Y117.47 E18.00004
G1 X30.96 Y52.53 E19.83212
G1 X34.91 Y48.58 E19.98990
G0 F2520 X35.12 Y49.08
G1 F1140 X134.88 Y49.08 E22.80463
G1 X138.54 Y52.74 E22.95073
G1 X138.54 Y117.26 E24.77113
G1 X134.88 Y120.92 E24.91726
G1 X35.12 Y120.92 E27.73199
G1 X31.46 Y117.26 E27.87809
G1 X31.46 Y52.74 E29.69849
G1 X35.12 Y49.08 E29.84458
G0 F2520 X35.33 Y49.58
G1 F1140 X134.67 Y49.58 E32.64762
G1 X138.04 Y52.95 E32.78204
G1 X138.04 Y117.05 E34.59076
G1 X134.67 Y120.42 E34.72519
G1 X35.33 Y120.42 E37.52824
G1 X31.96 Y117.05 E37.66265
G1 X31.96 Y52.95 E39.47137
G1 X35.33 Y49.58 E39.60576
G0 F2520 X35.53 Y50.08
G1 F1140 X134.46 Y50.08 E42.39713
G1 X137.54 Y53.16 E42.51985
G1 X137.54 Y116.84 E44.31689
G1 X134.46 Y119.92 E44.43963
G1 X35.53 Y119.92 E47.23100
G1 X32.46 Y116.84 E47.35372
G1 X32.46 Y53.16 E49.15076
G1 X35.53 Y50.08 E49.27346
G0 F2520 X35.74 Y50.58
G1 F1140 X134.26 Y50.58 E52.05314
G1 X137.04 Y53.36 E52.16417
G1 X137.04 Y116.64 E53.94953
G1 X134.26 Y119.42 E54.06058
G1 X35.74 Y119.42 E56.84026
G1 X32.96 Y116.64 E56.95129
G1 X32.96 Y53.36 E58.73665
G1 X35.74 Y50.58 E58.84766
G0 F2520 X35.95 Y51.08
G1 F1140 X134.05 Y51.08 E61.61566
G1 X136.54 Y53.57 E61.71500
G1 X136.54 Y116.43 E63.48868
G1 X134.05 Y118.92 E63.58804
G1 X35.95 Y118.92 E66.35604
G1 X33.46 Y116.43 E66.45538
G1 X33.46 Y53.57 E68.22905
G1 X35.95 Y51.08 E68.32837
G0 F2520 X36.16 Y51.58
G1 F1140 X133.84 Y51.58 E71.08469
G1 X136.04 Y53.78 E71.17234
G1 X136.04 Y116.22 E72.93433
G1 X133.84 Y118.42 E73.02200
G1 X36.16 Y118.42 E75.77832
G1 X33.96 Y116.22 E75.86597
G1 X33.96 Y53.78 E77.62796
G1 X36.16 Y51.58 E77.71559
G0 F2520 X36.36 Y52.08
G1 F1140 X133.64 Y52.08 E80.46023
G1 X135.54 Y53.98 E80.53619
G1 X135.54 Y116.02 E82.28650
G1 X133.64 Y117.92 E82.36247
G1 X36.36 Y117.92 E85.10711
G1 X34.46 Y116.02 E85.18307
G1 X34.46 Y53.98 E86.93338
G1 X36.36 Y52.08 E87.00932
G0 F2520 X36.57 Y52.58
G1 F1140 X133.43 Y52.58 E89.74228
G1 X135.04 Y54.19 E89.80654
G1 X135.04 Y115.81 E91.54517
G1 X133.43 Y117.42 E91.60945
G1 X36.57 Y117.42 E94.34241
G1 X34.96 Y115.81 E94.40668
G1 X34.96 Y54.19 E96.14531
G1 X36.57 Y52.58 E96.20955
G0 F2520 X36.78 Y53.08
G1 F1140 X133.22 Y53.08 E98.93077
G1 X134.54 Y54.40 E98.98338
G1 X134.54 Y115.60 E100.71028
G1 X133.22 Y116.92 E100.76291
G1 X36.78 Y116.92 E103.48413
G1 X35.46 Y115.60 E103.53674
G1 X35.46 Y54.40 E105.26364
G1 X36.78 Y53.08 E105.31623
G0 F2520 X36.98 Y53.58
G1 F1140 X133.01 Y53.58 E108.02577
G1 X134.04 Y54.60 E108.06669
G1 X134.04 Y115.39 E109.78190
G1 X133.01 Y116.42 E109.82284
G1 X36.98 Y116.42 E112.53238
G1 X35.96 Y115.39 E112.57330
G1 X35.96 Y54.60 E114.28851
G1 X36.98 Y53.58 E114.32941
G0 F2520 X37.19 Y54.08
G1 F1140 X132.81 Y54.08 E117.02727
G1 X133.54 Y54.81 E117.05650
G1 X133.54 Y115.19 E118.76003
G1 X132.81 Y115.92 E118.78928
G1 X37.19 Y115.92 E121.48714
G1 X36.46 Y115.19 E121.51637
G1 X36.46 Y54.81 E123.21990
G1 X37.19 Y54.08 E123.24911
G0 F2520 X37.40 Y54.58
G1 F1140 X132.60 Y54.58 E125.93528
G1 X133.04 Y55.02 E125.95282
G1 X133.04 Y114.98 E127.64467
G1 X132.60 Y115.42 E127.66223
G1 X37.40 Y115.42 E130.34840
G1 X36.96 Y114.98 E130.36594
G1 X36.96 Y55.02 E132.05779
G1 X37.40 Y54.58 E132.07531
G0 F2520 X37.61 Y55.08
G1 F1140 X132.39 Y55.08 E134.74980
G1 X132.54 Y55.23 E134.75565
G1 X132.54 Y114.77 E136.43582
G1 X132.39 Y114.92 E136.44168
G1 X37.61 Y114.92 E139.11618
G1 X37.46 Y114.77 E139.12202
G1 X37.46 Y55.23 E140.80219
G1 X37.61 Y55.08 E140.80802
G0 F2520 X38.46 Y56.08
;TYPE:WALL-INNER
G1 F1140 X131.54 Y56.08 E143.43435
G1 X131.54 Y113.92 E145.06635
G1 X38.46 Y113.92 E147.69268
G1 X38.46 Y56.08 E149.32468
G0 F2520 X49.96 Y64.11
G1 F1140 X49.96 Y105.88 E150.50320
G1 X50.40 Y106.32 E150.52074
G1 X54.02 Y106.32 E150.62291
G1 X54.46 Y105.88 E150.64047
G1 X54.46 Y64.11 E151.81899
G1 X54.02 Y63.68 E151.83652
G1 X50.40 Y63.68 E151.93869
G1 X49.96 Y64.11 E151.95621
G0 F2520 X50.43 Y63.74
G0 X53.99 Y63.74
G0 X55.96 Y64.11
G1 F1140 X55.96 Y105.88 E153.13473
G1 X56.40 Y106.32 E153.15227
G1 X60.02 Y106.32 E153.25444
G1 X60.46 Y105.88 E153.27199
G1 X60.46 Y64.11 E154.45051
G1 X60.02 Y63.68 E154.46805
G1 X56.40 Y63.68 E154.57022
G1 X55.96 Y64.11 E154.58774
G0 F2520 X56.43 Y63.74
G0 X59.99 Y63.74
G0 X61.96 Y64.11
G1 F1140 X61.96 Y105.88 E155.76626
G1 X62.40 Y106.32 E155.78379
G1 X66.02 Y106.32 E155.88596
G1 X66.46 Y105.88 E155.90352
G1 X66.46 Y64.11 E157.08204
G1 X66.02 Y63.68 E157.09958
G1 X62.40 Y63.68 E157.20175
G1 X61.96 Y64.11 E157.21926
G0 F2520 X62.43 Y63.74
G0 X65.99 Y63.74
G0 X67.96 Y64.11
G1 F1140 X67.96 Y105.88 E158.39778
G1 X68.40 Y106.32 E158.41532
G1 X72.02 Y106.32 E158.51749
G1 X72.46 Y105.88 E158.53505
G1 X72.46 Y64.11 E159.71357
G1 X72.02 Y63.68 E159.73110
G1 X68.40 Y63.68 E159.83327
G1 X67.96 Y64.11 E159.85079
G0 F2520 X68.43 Y63.74
G0 X71.99 Y63.74
G0 X73.96 Y64.11
G1 F1140 X73.96 Y105.88 E161.02931
G1 X74.40 Y106.32 E161.04685
G1 X78.02 Y106.32 E161.14902
G1 X78.46 Y105.88 E161.16657
G1 X78.46 Y64.11 E162.34509
G1 X78.02 Y63.68 E162.36263
G1 X74.40 Y63.68 E162.46480
G1 X73.96 Y64.11 E162.48232
G0 F2520 X74.43 Y63.74
G0 X77.99 Y63.74
G0 X79.96 Y64.11
G1 F1140 X79.96 Y105.88 E163.66084
G1 X80.40 Y106.32 E163.67837
G1 X84.02 Y106.32 E163.78054
G1 X84.46 Y105.88 E163.79810
G1 X84.46 Y64.11 E164.97662
G1 X84.02 Y63.68 E164.99416
G1 X80.40 Y63.68 E165.09633
G1 X79.96 Y64.11 E165.11384
G0 F2520 X80.43 Y63.74
G0 X83.99 Y63.74
G0 X85.96 Y64.11
G1 F1140 X85.96 Y105.88 E166.29236
G1 X86.40 Y106.32 E166.30990
G1 X90.02 Y106.32 E166.41207
G1 X90.46 Y105.88 E166.42963
G1 X90.46 Y64.11 E167.60815
G1 X90.02 Y63.68 E167.62568
G1 X86.40 Y63.68 E167.72785
G1 X85.96 Y64.11 E167.74537
G0 F2520 X86.43 Y63.74
G0 X89.99 Y63.74
G0 X91.96 Y64.11
G1 F1140 X91.96 Y105.88 E168.92389
G1 X92.40 Y106.32 E168.94143
G1 X96.02 Y106.32 E169.04360
G1 X96.46 Y105.88 E169.06115
G1 X96.46 Y64.11 E170.23967
G1 X96.02 Y63.68 E170.25721
G1 X92.40 Y63.68 E170.35938
G1 X91.96 Y64.11 E170.37690
G0 F2520 X92.43 Y63.74
G0 X95.99 Y63.74
G0 X97.96 Y64.11
G1 F1140 X97.96 Y105.88 E171.55542
G1 X98.40 Y106.32 E171.57295
G1 X102.02 Y106.32 E171.67512
G1 X102.46 Y105.88 E171.69268
G1 X102.46 Y64.11 E172.87120
G1 X102.02 Y63.68 E172.88874
G1 X98.40 Y63.68 E172.99091
G1 X97.96 Y64.11 E173.00843
G0 F2520 X98.46 Y64.32
;TYPE:WALL-OUTER
G1 F1140 X98.46 Y105.68 E174.17526
G1 X98.61 Y105.82 E174.18111
G1 X101.81 Y105.82 E174.27160
G1 X101.96 Y105.68 E174.27746
G1 X101.96 Y64.32 E175.44430
G1 X101.81 Y64.18 E175.45015
G1 X98.61 Y64.18 E175.54063
G1 X98.46 Y64.32 E175.54646
G0 F2520 X98.11 Y64.32
G0 X96.21 Y64.08
G0 X95.96 Y64.32
G1 F1140 X95.81 Y64.18 E175.55231
G1 X92.61 Y64.18 E175.64279
G1 X92.46 Y64.32 E175.64862
G1 X92.46 Y105.68 E176.81546
G1 X92.61 Y105.82 E176.82130
G1 X95.81 Y105.82 E176.91179
G1 X95.96 Y105.68 E176.91766
G1 X95.96 Y64.32 E178.08450
G0 F2520 X96.21 Y64.08
G0 X95.99 Y63.74
G0 X92.43 Y63.74
G0 X90.21 Y64.08
G0 X89.96 Y64.32
G1 F1140 X89.81 Y64.18 E178.09034
G1 X86.61 Y64.18 E178.18083
G1 X86.46 Y64.32 E178.18665
G1 X86.46 Y105.68 E179.35349
G1 X86.61 Y105.82 E179.35934
G1 X89.81 Y105.82 E179.44983
G1 X89.96 Y105.68 E179.45569
G1 X89.96 Y64.32 E180.62253
G0 F2520 X90.21 Y64.08
G0 X89.99 Y63.74
G0 X86.43 Y63.74
G0 X84.21 Y64.08
G0 X83.96 Y64.32
G1 F1140 X83.81 Y64.18 E180.62838
G1 X80.61 Y64.18 E180.71886
G1 X80.46 Y64.32 E180.72469
G1 X80.46 Y105.68 E181.89153
G1 X80.61 Y105.82 E181.89737
G1 X83.81 Y105.82 E181.98786
G1 X83.96 Y105.68 E181.99373
G1 X83.96 Y64.32 E183.16057
G0 F2520 X84.21 Y64.08
G0 X83.99 Y63.74
G0 X80.43 Y63.74
G0 X78.21 Y64.08
G0 X77.96 Y64.32
G1 F1140 X77.81 Y64.18 E183.16641
G1 X74.61 Y64.18 E183.25690
G1 X74.46 Y64.32 E183.26272
G1 X74.46 Y105.68 E184.42956
G1 X74.61 Y105.82 E184.43541
G1 X77.81 Y105.82 E184.52590
G1 X77.96 Y105.68 E184.53176
G1 X77.96 Y64.32 E185.69860
G0 F2520 X78.21 Y64.08
G0 X77.99 Y63.74
G0 X74.43 Y63.74
G0 X72.21 Y64.08
G0 X71.96 Y64.32
G1 F1140 X71.81 Y64.18 E185.70445
G1 X68.61 Y64.18 E185.79493
G1 X68.46 Y64.32 E185.80076
G1 X68.46 Y105.68 E186.96760
G1 X68.61 Y105.82 E186.97344
G1 X71.81 Y105.82 E187.06393
G1 X71.96 Y105.68 E187.06980
G1 X71.96 Y64.32 E188.23664
G0 F2520 X72.21 Y64.08
G0 X71.99 Y63.74
G0 X68.43 Y63.74
G0 X66.21 Y64.08
G0 X65.96 Y64.32
G1 F1140 X65.81 Y64.18 E188.24248
G1 X62.61 Y64.18 E188.33297
G1 X62.46 Y64.32 E188.33879
G1 X62.46 Y105.68 E189.50563
G1 X62.61 Y105.82 E189.51148
G1 X65.81 Y105.82 E189.60197
G1 X65.96 Y105.68 E189.60783
G1 X65.96 Y64.32 E190.77467
G0 F2520 X66.21 Y64.08
G0 X65.99 Y63.74
G0 X62.43 Y63.74
G0 X60.21 Y64.08
G0 X59.96 Y64.32
G1 F1140 X59.81 Y64.18 E190.78052
G1 X56.61 Y64.18 E190.87100
G1 X56.46 Y64.32 E190.87683
G1 X56.46 Y105.68 E192.04367
G1 X56.61 Y105.82 E192.04951
G1 X59.81 Y105.82 E192.14000
G1 X59.96 Y105.68 E192.14587
G1 X59.96 Y64.32 E193.31270
G0 F2520 X60.21 Y64.08
G0 X59.99 Y63.74
G0 X56.43 Y63.74
G0 X54.21 Y64.08
G0 X53.96 Y64.32
G1 F1140 X53.81 Y64.18 E193.31855
G1 X50.61 Y64.18 E193.40904
G1 X50.46 Y64.32 E193.41486
G1 X50.46 Y105.68 E194.58170
G1 X50.61 Y105.82 E194.58755
G1 X53.81 Y105.82 E194.67804
G1 X53.96 Y105.68 E194.68390
G1 X53.96 Y64.32 E195.85074
G0 F2520 X54.21 Y64.08
G0 X38.31 Y55.84
G0 X37.96 Y55.58
G1 F1140 X132.04 Y55.58 E198.50529
G1 X132.04 Y114.42 E200.16551
G1 X37.96 Y114.42 E202.82005
G1 X37.96 Y55.58 E204.48027
G0 F2520 X38.82 Y56.25
;TYPE:FILL
G1 F1140 X49.78 Y67.22 E204.91793
G0 F2520 X49.78 Y67.93
G1 F1140 X38.63 Y56.78 E205.36287
G0 F2520 X38.63 Y57.49
G1 F1140 X49.78 Y68.64 E205.80781
G0 F2520 X49.78 Y69.34
G1 F1140 X38.63 Y58.19 E206.25275
G0 F2520 X38.63 Y58.90
G1 F1140 X49.78 Y70.05 E206.69769
G0 F2520 X49.78 Y70.76
G1 F1140 X38.63 Y59.61 E207.14265
G0 F2520 X38.63 Y60.31
G1 F1140 X49.78 Y71.47 E207.58761
G0 F2520 X49.78 Y72.17
G1 F1140 X38.63 Y61.02 E208.03257
G0 F2520 X38.63 Y61.73
G1 F1140 X49.78 Y72.88 E208.47752
G0 F2520 X49.78 Y73.59
G1 F1140 X38.63 Y62.44 E208.92246
G0 F2520 X38.63 Y63.14
G1 F1140 X49.78 Y74.29 E209.36740
G0 F2520 X49.78 Y75.00
G1 F1140 X38.63 Y63.85 E209.81234
G0 F2520 X38.63 Y64.56
G1 F1140 X49.78 Y75.71 E210.25728
G0 F2520 X49.78 Y76.41
G1 F1140 X38.63 Y65.26 E210.70222
G0 F2520 X38.63 Y65.97
G1 F1140 X49.78 Y77.12 E211.14718
G0 F2520 X49.78 Y77.83
G1 F1140 X38.63 Y66.68 E211.59214
G0 F2520 X38.63 Y67.39
G1 F1140 X49.78 Y78.54 E212.03710
G0 F2520 X49.78 Y79.24
G1 F1140 X38.63 Y68.09 E212.48206
G0 F2520 X38.63 Y68.80
G1 F1140 X49.78 Y79.95 E212.92700
G0 F2520 X49.78 Y80.66
G1 F1140 X38.63 Y69.51 E213.37194
G0 F2520 X38.63 Y70.21
G1 F1140 X49.78 Y81.36 E213.81689
G0 F2520 X49.78 Y82.07
G1 F1140 X38.63 Y70.92 E214.26183
G0 F2520 X38.63 Y71.63
G1 F1140 X49.78 Y82.78 E214.70677
G0 F2520 X49.78 Y83.48
G1 F1140 X38.63 Y72.33 E215.15171
G0 F2520 X38.63 Y73.04
G1 F1140 X49.78 Y84.19 E215.59667
G0 F2520 X49.78 Y84.90
G1 F1140 X38.63 Y73.75 E216.04163
G0 F2520 X38.63 Y74.46
G1 F1140 X49.78 Y85.61 E216.48659
G0 F2520 X49.78 Y86.31
G1 F1140 X38.63 Y75.16 E216.93153
G0 F2520 X38.63 Y75.87
G1 F1140 X49.78 Y87.02 E217.37647
G0 F2520 X49.78 Y87.73
G1 F1140 X38.63 Y76.58 E217.82141
G0 F2520 X38.63 Y77.28
G1 F1140 X49.78 Y88.44 E218.26635
G0 F2520 X49.78 Y89.14
G1 F1140 X38.63 Y77.99 E218.71129
G0 F2520 X38.63 Y78.70
G1 F1140 X49.78 Y89.85 E219.15623
G0 F2520 X49.78 Y90.56
G1 F1140 X38.63 Y79.41 E219.60120
G0 F2520 X38.63 Y80.11
G1 F1140 X49.78 Y91.26 E220.04616
G0 F2520 X49.78 Y91.97
G1 F1140 X38.63 Y80.82 E220.49112
G0 F2520 X38.63 Y81.53
G1 F1140 X49.78 Y92.68 E220.93608
G0 F2520 X49.78 Y93.39
G1 F1140 X38.63 Y82.23 E221.38102
G0 F2520 X38.63 Y82.94
G1 F1140 X49.78 Y94.09 E221.82596
G0 F2520 X49.78 Y94.80
G1 F1140 X38.63 Y83.65 E222.27090
G0 F2520 X38.63 Y84.36
G1 F1140 X49.78 Y95.51 E222.71584
G0 F2520 X49.78 Y96.21
G1 F1140 X38.63 Y85.06 E223.16078
G0 F2520 X38.63 Y85.77
G1 F1140 X49.78 Y96.92 E223.60574
G0 F2520 X49.78 Y97.63
G1 F1140 X38.63 Y86.48 E224.05070
G0 F2520 X38.63 Y87.18
G1 F1140 X49.78 Y98.33 E224.49566
G0 F2520 X49.78 Y99.04
G1 F1140 X38.63 Y87.89 E224.94063
G0 F2520 X38.63 Y88.60
G1 F1140 X49.78 Y99.75 E225.38557
G0 F2520 X49.78 Y100.46
G1 F1140 X38.63 Y89.31 E225.83051
G0 F2520 X38.63 Y90.01
G1 F1140 X49.78 Y101.16 E226.27545
G0 F2520 X49.78 Y101.87
G1 F1140 X38.63 Y90.72 E226.72039
G0 F2520 X38.63 Y91.43
G1 F1140 X49.78 Y102.58 E227.16533
G0 F2520 X49.78 Y103.28
G1 F1140 X38.63 Y92.13 E227.61027
G0 F2520 X38.63 Y92.84
G1 F1140 X49.78 Y103.99 E228.05523
G0 F2520 X49.78 Y104.70
G1 F1140 X38.63 Y93.55 E228.50019
G0 F2520 X38.63 Y94.25
G1 F1140 X49.78 Y105.41 E228.94515
G0 F2520 X50.88 Y106.50
G1 F1140 X58.12 Y113.74 E229.23433
G0 F2520 X57.42 Y113.74
G1 F1140 X38.63 Y94.96 E229.98377
G0 F2520 X38.63 Y95.67
G1 F1140 X56.71 Y113.74 E230.70500
G0 F2520 X56.00 Y113.74
G1 F1140 X38.63 Y96.38 E231.39802
G0 F2520 X38.63 Y97.08
G1 F1140 X55.30 Y113.74 E232.06283
G0 F2520 X54.59 Y113.74
G1 F1140 X38.63 Y97.79 E232.69941
G0 F2520 X38.63 Y98.50
G1 F1140 X53.88 Y113.74 E233.30777
G0 F2520 X53.17 Y113.74
G1 F1140 X38.63 Y99.20 E233.88792
G0 F2520 X38.63 Y99.91
G1 F1140 X52.47 Y113.74 E234.43986
G0 F2520 X51.76 Y113.74
G1 F1140 X38.63 Y100.62 E234.96359
G0 F2520 X38.63 Y101.33
G1 F1140 X51.05 Y113.74 E235.45911
G0 F2520 X50.34 Y113.74
G1 F1140 X38.63 Y102.03 E235.92640
G0 F2520 X38.63 Y102.74
G1 F1140 X49.64 Y113.74 E236.36547
G0 F2520 X48.93 Y113.74
G1 F1140 X38.63 Y103.45 E236.77634
G0 F2520 X38.63 Y104.16
G1 F1140 X48.22 Y113.74 E237.15897
G0 F2520 X47.52 Y113.74
G1 F1140 X38.63 Y104.86 E237.51339
G0 F2520 X38.63 Y105.57
G1 F1140 X46.81 Y113.74 E237.83960
G0 F2520 X46.10 Y113.74
G1 F1140 X38.63 Y106.28 E238.13760
G0 F2520 X38.63 Y106.98
G1 F1140 X45.40 Y113.74 E238.40738
G0 F2520 X44.69 Y113.74
G1 F1140 X38.63 Y107.69 E238.64896
G0 F2520 X38.63 Y108.40
G1 F1140 X43.98 Y113.74 E238.86230
G0 F2520 X43.27 Y113.74
G1 F1140 X38.63 Y109.11 E239.04743
G0 F2520 X38.63 Y109.81
G1 F1140 X42.57 Y113.74 E239.20435
G0 F2520 X41.86 Y113.74
G1 F1140 X38.63 Y110.52 E239.33306
G0 F2520 X38.63 Y111.23
G1 F1140 X41.15 Y113.74 E239.43353
G0 F2520 X40.45 Y113.74
G1 F1140 X38.63 Y111.93 E239.50580
G0 F2520 X38.63 Y112.64
G1 F1140 X39.74 Y113.74 E239.54985
G0 F2520 X39.03 Y113.74
G1 F1140 X38.63 Y113.35 E239.56569
G0 F2520 X51.58 Y106.50
G1 F1140 X58.83 Y113.74 E239.85487
G0 F2520 X59.54 Y113.74
G1 F1140 X52.29 Y106.50 E240.14405
G0 F2520 X53.00 Y106.50
