;Generated with Cura_SteamEngine 13.06.4
M140 S50.000000
M109 T0 S195.000000
T0
M190 S50.000000
;Sliced at: Sat 07 Sep 2013 18:14:32
;Basic settings: Layer height: 0.4 Walls: 1 Fill: 20
;Print time: #P_TIME#
;Filament used: #F_AMNT#m #F_WGHT#g
;Filament cost: #F_COST#
G21        ;metric values
G90        ;absolute positioning
M107       ;start with the fan off
;M92 X64.8592 ; calibrate X
M92 X62.4364 ; calibrate X
;M92 Y64.8592 ; calibrate Y
M92 Y61.7272 ; calibrate Y
M92 Z2387.0719 ; calibrate Z
M92 E569 ; calibrate E
G28 X0 Y0  ;move X/Y to min endstops
G28 Z0     ;move Z to min endstops
G1 Z15.0 F9000 ;move the platform down 15mm
G92 E0                  ;zero the extruded length
G1 F200 E3              ;extrude 3mm of feed stock
G92 E0                  ;zero the extruded length again
G1 F9000
M117 Printing...

;total_layers=110
;LAYER:0
M107
G0 F2520 X34.71 Y48.08 Z0.30
;TYPE:SKIRT
G1 F1140 X135.29 Y48.08 E2.36512
G1 X139.54 Y52.33 E2.50633
G1 X139.54 Y117.67 E4.04282
G1 X135.29 Y121.92 E4.18405
G1 X34.71 Y121.92 E6.54917
G1 X30.46 Y117.67 E6.69038
G1 X30.46 Y52.33 E8.22687
G1 X34.71 Y48.08 E8.36806
G0 F2520 X34.91 Y48.58
G1 F1140 X135.09 Y48.58 E10.72340
G1 X139.04 Y52.53 E10.85490
G1 X139.04 Y117.46 E12.38161
G1 X135.09 Y121.42 E12.51312
G1 X34.91 Y121.42 E14.86846
G1 X30.96 Y117.46 E14.99996
G1 X30.96 Y52.53 E16.52667
G1 X34.91 Y48.58 E16.65816
G0 F2520 X35.12 Y49.08
G1 F1140 X134.88 Y49.08 E19.00376
G1 X138.54 Y52.74 E19.12552
G1 X138.54 Y117.26 E20.64249
G1 X134.88 Y120.92 E20.76426
G1 X35.12 Y120.92 E23.10987
G1 X31.46 Y117.26 E23.23163
G1 X31.46 Y52.74 E24.74860
G1 X35.12 Y49.08 E24.87034
G0 F2520 X35.33 Y49.58
G1 F1140 X134.67 Y49.58 E27.20621
G1 X138.04 Y52.95 E27.31822
G1 X138.04 Y117.05 E28.82547
G1 X134.67 Y120.42 E28.93749
G1 X35.33 Y120.42 E31.27337
G1 X31.96 Y117.05 E31.38538
G1 X31.96 Y52.95 E32.89262
G1 X35.33 Y49.58 E33.00462
G0 F2520 X35.53 Y50.08
G1 F1140 X134.46 Y50.08 E35.33075
G1 X137.54 Y53.16 E35.43302
G1 X137.54 Y116.84 E36.93053
G1 X134.46 Y119.92 E37.03281
G1 X35.53 Y119.92 E39.35895
G1 X32.46 Y116.84 E39.46122
G1 X32.46 Y53.16 E40.95873
G1 X35.53 Y50.08 E41.06098
G0 F2520 X35.74 Y50.58
G1 F1140 X134.26 Y50.58 E43.37738
G1 X137.04 Y53.36 E43.46991
G1 X137.04 Y116.64 E44.95768
G1 X134.26 Y119.42 E45.05022
G1 X35.74 Y119.42 E47.36663
G1 X32.96 Y116.64 E47.45915
G1 X32.96 Y53.36 E48.94693
G1 X35.74 Y50.58 E49.03944
G0 F2520 X35.95 Y51.08
G1 F1140 X134.05 Y51.08 E51.34610
G1 X136.54 Y53.57 E51.42889
G1 X136.54 Y116.43 E52.90693
G1 X134.05 Y118.92 E52.98973
G1 X35.95 Y118.92 E55.29639
G1 X33.46 Y116.43 E55.37918
G1 X33.46 Y53.57 E56.85722
G1 X35.95 Y51.08 E56.93998
G0 F2520 X36.16 Y51.58
G1 F1140 X133.84 Y51.58 E59.23691
G1 X136.04 Y53.78 E59.30995
G1 X136.04 Y116.22 E60.77826
G1 X133.84 Y118.42 E60.85132
G1 X36.16 Y118.42 E63.14825
G1 X33.96 Y116.22 E63.22129
G1 X33.96 Y53.78 E64.68959
G1 X36.16 Y51.58 E64.76262
G0 F2520 X36.36 Y52.08
G1 F1140 X133.64 Y52.08 E67.04982
G1 X135.54 Y53.98 E67.11311
G1 X135.54 Y116.02 E68.57168
G1 X133.64 Y117.92 E68.63500
G1 X36.36 Y117.92 E70.92219
G1 X34.46 Y116.02 E70.98549
G1 X34.46 Y53.98 E72.44406
G1 X36.36 Y52.08 E72.50734
G0 F2520 X36.57 Y52.58
G1 F1140 X133.43 Y52.58 E74.78481
G1 X135.04 Y54.19 E74.83836
G1 X135.04 Y115.81 E76.28720
G1 X133.43 Y117.42 E76.34077
G1 X36.57 Y117.42 E78.61823
G1 X34.96 Y115.81 E78.67178
G1 X34.96 Y54.19 E80.12062
G1 X36.57 Y52.58 E80.17416
G0 F2520 X36.78 Y53.08
G1 F1140 X133.22 Y53.08 E82.44184
G1 X134.54 Y54.40 E82.48568
G1 X134.54 Y115.60 E83.92474
G1 X133.22 Y116.92 E83.96860
G1 X36.78 Y116.92 E86.23628
G1 X35.46 Y115.60 E86.28013
G1 X35.46 Y54.40 E87.71918
G1 X36.78 Y53.08 E87.76301
G0 F2520 X36.98 Y53.58
G1 F1140 X133.01 Y53.58 E90.02096
G1 X134.04 Y54.60 E90.05506
G1 X134.04 Y115.39 E91.48438
G1 X133.01 Y116.42 E91.51849
G1 X36.98 Y116.42 E93.77644
G1 X35.96 Y115.39 E93.81054
G1 X35.96 Y54.60 E95.23986
G1 X36.98 Y53.58 E95.27395
G0 F2520 X37.19 Y54.08
G1 F1140 X132.81 Y54.08 E97.52216
G1 X133.54 Y54.81 E97.54652
G1 X133.54 Y115.19 E98.96610
G1 X132.81 Y115.92 E98.99048
G1 X37.19 Y115.92 E101.23869
G1 X36.46 Y115.19 E101.26305
G1 X36.46 Y54.81 E102.68264
G1 X37.19 Y54.08 E102.70698
G0 F2520 X37.40 Y54.58
G1 F1140 X132.60 Y54.58 E104.94546
G1 X133.04 Y55.02 E104.96007
G1 X133.04 Y114.98 E106.36992
G1 X132.60 Y115.42 E106.38455
G1 X37.40 Y115.42 E108.62303
G1 X36.96 Y114.98 E108.63765
G1 X36.96 Y55.02 E110.04750
G1 X37.40 Y54.58 E110.06210
G0 F2520 X37.61 Y55.08
G1 F1140 X132.39 Y55.08 E112.29084
G1 X132.54 Y55.23 E112.29571
G1 X132.54 Y114.77 E113.69583
G1 X132.39 Y114.92 E113.70072
G1 X37.61 Y114.92 E115.92946
G1 X37.46 Y114.77 E115.93434
G1 X37.46 Y55.23 E117.33445
G1 X37.61 Y55.08 E117.33931
G0 F2520 X37.96 Y55.58
;TYPE:WALL-OUTER
G1 F1140 X132.04 Y55.58 E119.55143
G1 X132.04 Y114.42 E120.93492
G1 X37.96 Y114.42 E123.14704
G1 X37.96 Y55.58 E124.53054
G0 F2520 X38.66 Y56.43
G1 F1140 X38.67 Y113.57 E125.87408
G1 X38.81 Y113.71 E125.87893
G1 X131.19 Y113.72 E128.05099
G1 X131.33 Y113.57 E128.05584
G1 X131.34 Y56.43 E129.39944
G1 X131.19 Y56.28 E129.40434
G1 X38.81 Y56.28 E131.57642
G1 X38.66 Y56.43 E131.58131
G0 F2520 X38.56 Y56.28
;TYPE:FILL
G1 F1140 X38.43 Y55.81 E131.59535
G1 X39.26 Y55.93 E131.60700
G1 X39.97 Y55.93 E131.61865
G1 X40.68 Y55.93 E131.63029
G1 X41.38 Y55.93 E131.64193
G1 X42.09 Y55.93 E131.65356
G1 X42.80 Y55.93 E131.66520
G1 X43.50 Y55.93 E131.67684
G1 X44.21 Y55.93 E131.68847
G1 X44.92 Y55.93 E131.70011
G1 X45.63 Y55.93 E131.71175
G1 X46.33 Y55.93 E131.72338
G1 X47.04 Y55.93 E131.73504
G1 X47.75 Y55.93 E131.74667
G1 X48.45 Y55.93 E131.75831
G1 X49.16 Y55.93 E131.76995
G1 X49.87 Y55.93 E131.78158
G1 X50.58 Y55.93 E131.79322
G1 X51.28 Y55.93 E131.80486
G1 X51.99 Y55.93 E131.81649
G1 X52.70 Y55.93 E131.82813
G1 X53.40 Y55.93 E131.83978
G1 X54.11 Y55.93 E131.85142
G1 X54.82 Y55.93 E131.86306
G1 X55.52 Y55.93 E131.87469
G1 X56.23 Y55.93 E131.88633
G1 X56.94 Y55.93 E131.89797
G1 X57.65 Y55.93 E131.90960
G1 X58.35 Y55.93 E131.92124
G1 X59.06 Y55.93 E131.93288
G1 X59.77 Y55.93 E131.94453
G1 X60.48 Y55.93 E131.95617
G1 X61.18 Y55.93 E131.96780
G1 X61.89 Y55.93 E131.97944
G1 X62.60 Y55.93 E131.99108
G1 X63.30 Y55.93 E132.00271
G1 X64.01 Y55.93 E132.01435
G1 X64.72 Y55.93 E132.02599
G1 X65.42 Y55.93 E132.03762
G1 X66.13 Y55.93 E132.04926
G1 X66.84 Y55.93 E132.06091
G1 X67.55 Y55.93 E132.07255
G1 X68.25 Y55.93 E132.08419
G1 X68.96 Y55.93 E132.09582
G1 X69.67 Y55.93 E132.10746
G1 X70.37 Y55.93 E132.11910
G1 X71.08 Y55.93 E132.13073
G1 X71.79 Y55.93 E132.14237
G1 X72.50 Y55.93 E132.15401
G1 X73.20 Y55.93 E132.16566
G1 X73.91 Y55.93 E132.17730
G1 X74.62 Y55.93 E132.18893
G1 X75.32 Y55.93 E132.20057
G1 X76.03 Y55.93 E132.21221
G1 X76.74 Y55.93 E132.22384
G1 X77.44 Y55.93 E132.23548
G1 X78.15 Y55.93 E132.24712
G1 X78.86 Y55.93 E132.25875
G1 X79.57 Y55.93 E132.27039
G1 X80.27 Y55.93 E132.28204
G1 X80.98 Y55.93 E132.29368
G1 X81.69 Y55.93 E132.30532
G1 X82.39 Y55.93 E132.31695
G1 X83.10 Y55.93 E132.32859
G1 X83.81 Y55.93 E132.34023
G1 X84.52 Y55.93 E132.35186
G1 X85.22 Y55.93 E132.36350
G1 X85.93 Y55.93 E132.37509
G1 X86.64 Y55.93 E132.38669
G1 X87.34 Y55.93 E132.39829
G1 X88.05 Y55.93 E132.40990
G1 X88.76 Y55.93 E132.42150
G1 X89.47 Y55.93 E132.43310
G1 X90.17 Y55.93 E132.44471
G1 X90.88 Y55.93 E132.45631
G1 X91.59 Y55.93 E132.46791
G1 X92.30 Y55.93 E132.47950
G1 X93.00 Y55.93 E132.49110
G1 X93.71 Y55.93 E132.50271
G1 X94.42 Y55.93 E132.51431
G1 X95.12 Y55.93 E132.52591
G1 X95.83 Y55.93 E132.53752
G1 X96.54 Y55.93 E132.54912
G1 X97.24 Y55.93 E132.56072
G1 X97.95 Y55.93 E132.57233
G1 X98.66 Y55.93 E132.58393
G1 X99.37 Y55.93 E132.59552
G1 X100.07 Y55.93 E132.60712
G1 X100.78 Y55.93 E132.61872
G1 X101.49 Y55.93 E132.63033
G1 X102.19 Y55.93 E132.64193
G1 X102.90 Y55.93 E132.65354
G1 X103.61 Y55.93 E132.66514
G1 X104.32 Y55.93 E132.67674
G1 X105.02 Y55.93 E132.68835
G1 X105.73 Y55.93 E132.69993
G1 X106.44 Y55.93 E132.71154
G1 X107.14 Y55.93 E132.72314
G1 X107.85 Y55.93 E132.73474
G1 X108.56 Y55.93 E132.74635
G1 X109.27 Y55.93 E132.75795
G1 X109.97 Y55.93 E132.76955
G1 X110.68 Y55.93 E132.78116
G1 X111.39 Y55.93 E132.79276
G1 X112.09 Y55.93 E132.80435
G1 X112.80 Y55.93 E132.81595
G1 X113.51 Y55.93 E132.82755
G1 X114.22 Y55.93 E132.83916
G1 X114.92 Y55.93 E132.85076
G1 X115.63 Y55.93 E132.86236
G1 X116.34 Y55.93 E132.87397
G1 X117.04 Y55.93 E132.88557
G1 X117.75 Y55.93 E132.89717
G1 X118.46 Y55.93 E132.90878
G1 X119.17 Y55.93 E132.92036
G1 X119.87 Y55.93 E132.93197
G1 X120.58 Y55.93 E132.94357
G1 X121.29 Y55.93 E132.95517
G1 X121.99 Y55.93 E132.96678
G1 X122.70 Y55.93 E132.97838
G1 X123.41 Y55.93 E132.98998
G1 X124.11 Y55.93 E133.00159
G1 X124.82 Y55.93 E133.01319
G1 X125.53 Y55.93 E133.02478
G1 X126.24 Y55.93 E133.03638
G1 X126.94 Y55.93 E133.04798
G1 X127.65 Y55.93 E133.05959
G1 X128.36 Y55.93 E133.07119
G1 X129.06 Y55.93 E133.08279
G1 X129.77 Y55.93 E133.09440
G1 X130.48 Y55.93 E133.10600
G1 X131.19 Y55.93 E133.11760
G1 X131.69 Y56.43 E133.13423
G1 X131.69 Y57.14 E133.14603
G1 X131.69 Y57.84 E133.15784
G1 X131.69 Y58.55 E133.16964
G1 X131.69 Y59.26 E133.18144
G1 X131.69 Y59.97 E133.19325
G1 X131.69 Y60.67 E133.20505
G1 X131.69 Y61.38 E133.21684
G1 X131.69 Y62.09 E133.22864
G1 X131.69 Y62.80 E133.24044
G1 X131.69 Y63.50 E133.25224
G1 X131.69 Y64.21 E133.26405
G1 X131.69 Y64.92 E133.27585
G1 X131.69 Y65.62 E133.28765
G1 X131.69 Y66.33 E133.29946
G1 X131.69 Y67.04 E133.31126
G1 X131.69 Y67.74 E133.32306
G1 X131.69 Y68.45 E133.33486
G1 X131.69 Y69.16 E133.34667
G1 X131.69 Y69.86 E133.35847
G1 X131.69 Y70.57 E133.37027
G1 X131.69 Y71.28 E133.38208
G1 X131.69 Y71.99 E133.39386
G1 X131.69 Y72.69 E133.40567
G1 X131.69 Y73.40 E133.41747
G1 X131.69 Y74.11 E133.42927
G1 X131.69 Y74.81 E133.44107
G1 X131.69 Y75.52 E133.45288
G1 X131.69 Y76.23 E133.46468
G1 X131.69 Y76.94 E133.47648
G1 X131.69 Y77.64 E133.48829
G1 X131.69 Y78.35 E133.50007
G1 X131.69 Y79.06 E133.51187
G1 X131.69 Y79.76 E133.52366
G1 X131.69 Y80.47 E133.53546
G1 X131.69 Y81.18 E133.54728
G1 X131.69 Y81.89 E133.55912
G1 X131.69 Y82.59 E133.57096
G1 X131.69 Y83.30 E133.58279
G1 X131.69 Y84.01 E133.59460
G1 X131.69 Y84.71 E133.60640
G1 X131.69 Y85.42 E133.61820
G1 X131.69 Y86.13 E133.63000
G1 X131.69 Y86.83 E133.64181
G1 X131.69 Y87.54 E133.65361
G1 X131.69 Y88.25 E133.66543
G1 X131.69 Y88.96 E133.67727
G1 X131.69 Y89.66 E133.68910
G1 X131.69 Y90.37 E133.70090
G1 X131.69 Y91.08 E133.71271
G1 X131.69 Y91.78 E133.72454
G1 X131.69 Y92.49 E133.73638
G1 X131.69 Y93.20 E133.74822
G1 X131.69 Y93.91 E133.76005
G1 X131.69 Y94.61 E133.77190
G1 X131.69 Y95.32 E133.78374
G1 X131.69 Y96.03 E133.79558
G1 X131.69 Y96.73 E133.80741
G1 X131.69 Y97.44 E133.81925
G1 X131.69 Y98.15 E133.83109
G1 X131.69 Y98.86 E133.84292
G1 X131.69 Y99.56 E133.85476
G1 X131.69 Y100.27 E133.86659
G1 X131.69 Y100.98 E133.87845
G1 X131.69 Y101.69 E133.89028
G1 X131.69 Y102.39 E133.90210
G1 X131.69 Y103.10 E133.91397
G1 X131.69 Y103.81 E133.92584
G1 X131.69 Y104.51 E133.93771
G1 X131.69 Y105.22 E133.94958
G1 X131.69 Y105.93 E133.96143
G1 X131.69 Y106.63 E133.97327
G1 X131.69 Y107.34 E133.98511
G1 X131.69 Y108.05 E133.99698
G1 X131.69 Y108.76 E134.00884
G1 X131.69 Y109.46 E134.02071
G1 X131.69 Y110.17 E134.03258
G1 X131.69 Y110.88 E134.04445
G1 X131.69 Y111.58 E134.05632
G1 X131.69 Y112.29 E134.06818
G1 X131.69 Y113.00 E134.08001
G1 X131.63 Y113.65 E134.09187
G1 X131.50 Y114.23 E134.10707
G1 X130.63 Y114.07 E134.11878
G1 X129.93 Y114.07 E134.13048
G1 X129.22 Y114.07 E134.14219
G1 X128.51 Y114.07 E134.15391
G1 X127.80 Y114.07 E134.16561
G1 X127.10 Y114.07 E134.17731
G1 X126.39 Y114.07 E134.18902
G1 X125.68 Y114.07 E134.20072
G1 X124.98 Y114.07 E134.21242
G1 X124.27 Y114.07 E134.22413
G1 X123.56 Y114.07 E134.23583
G1 X122.86 Y114.07 E134.24753
G1 X122.15 Y114.07 E134.25925
G1 X121.44 Y114.07 E134.27096
G1 X120.73 Y114.07 E134.28266
G1 X120.03 Y114.07 E134.29436
G1 X119.32 Y114.07 E134.30606
G1 X118.61 Y114.07 E134.31777
G1 X117.91 Y114.07 E134.32947
G1 X117.20 Y114.07 E134.34117
G1 X116.49 Y114.07 E134.35288
G1 X115.78 Y114.07 E134.36458
G1 X115.08 Y114.07 E134.37630
G1 X114.37 Y114.07 E134.38800
G1 X113.66 Y114.07 E134.39971
G1 X112.96 Y114.07 E134.41141
G1 X112.25 Y114.07 E134.42311
G1 X111.54 Y114.07 E134.43483
G1 X110.83 Y114.07 E134.44654
G1 X110.13 Y114.07 E134.45824
G1 X109.42 Y114.07 E134.46994
G1 X108.71 Y114.07 E134.48165
G1 X108.01 Y114.07 E134.49335
G1 X107.30 Y114.07 E134.50505
G1 X106.59 Y114.07 E134.51676
G1 X105.88 Y114.07 E134.52846
G1 X105.18 Y114.07 E134.54018
G1 X104.47 Y114.07 E134.55188
G1 X103.76 Y114.07 E134.56358
G1 X103.06 Y114.07 E134.57529
G1 X102.35 Y114.07 E134.58699
G1 X101.64 Y114.07 E134.59869
G1 X100.93 Y114.07 E134.61040
G1 X100.23 Y114.07 E134.62210
G1 X99.52 Y114.07 E134.63380
G1 X98.81 Y114.07 E134.64552
G1 X98.11 Y114.07 E134.65723
G1 X97.40 Y114.07 E134.66893
G1 X96.69 Y114.07 E134.68063
G1 X95.98 Y114.07 E134.69234
G1 X95.28 Y114.07 E134.70404
G1 X94.57 Y114.07 E134.71574
G1 X93.86 Y114.07 E134.72750
G1 X93.16 Y114.07 E134.73923
G1 X92.45 Y114.07 E134.75097
G1 X91.74 Y114.07 E134.76270
G1 X91.03 Y114.07 E134.77444
G1 X90.33 Y114.07 E134.78618
G1 X89.62 Y114.07 E134.79795
G1 X88.91 Y114.07 E134.80970
G1 X88.20 Y114.07 E134.82144
G1 X87.50 Y114.07 E134.83317
G1 X86.79 Y114.07 E134.84491
G1 X86.08 Y114.07 E134.85665
G1 X85.38 Y114.07 E134.86838
G1 X84.67 Y114.07 E134.88012
G1 X83.96 Y114.07 E134.89182
G1 X83.25 Y114.07 E134.90354
G1 X82.55 Y114.07 E134.91524
G1 X81.84 Y114.07 E134.92695
G1 X81.13 Y114.07 E134.93865
G1 X80.43 Y114.07 E134.95035
G1 X79.72 Y114.07 E134.96206
G1 X79.01 Y114.07 E134.97376
G1 X78.31 Y114.07 E134.98546
G1 X77.60 Y114.07 E134.99717
G1 X76.89 Y114.07 E135.00889
G1 X76.18 Y114.07 E135.02059
G1 X75.48 Y114.07 E135.03233
G1 X74.77 Y114.07 E135.04410
G1 X74.06 Y114.07 E135.05587
G1 X73.36 Y114.07 E135.06762
G1 X72.65 Y114.07 E135.07936
G1 X71.94 Y114.07 E135.09109
G1 X71.23 Y114.07 E135.10283
G1 X70.53 Y114.07 E135.11456
G1 X69.82 Y114.07 E135.12630
G1 X69.11 Y114.07 E135.13804
G1 X68.41 Y114.07 E135.14981
G1 X67.70 Y114.07 E135.16158
G1 X66.99 Y114.07 E135.17333
G1 X66.28 Y114.07 E135.18507
G1 X65.58 Y114.07 E135.19680
G1 X64.87 Y114.07 E135.20854
G1 X64.16 Y114.07 E135.22028
G1 X63.46 Y114.07 E135.23201
G1 X62.75 Y114.07 E135.24375
G1 X62.04 Y114.07 E135.25548
G1 X61.34 Y114.07 E135.26725
G1 X60.63 Y114.07 E135.27901
G1 X59.92 Y114.07 E135.29074
G1 X59.21 Y114.07 E135.30248
G1 X58.51 Y114.07 E135.31422
G1 X57.80 Y114.07 E135.32595
G1 X57.09 Y114.07 E135.33769
G1 X56.38 Y114.07 E135.34946
G1 X55.68 Y114.07 E135.36123
G1 X54.97 Y114.07 E135.37300
G1 X54.26 Y114.07 E135.38477
G1 X53.56 Y114.07 E135.39652
G1 X52.85 Y114.07 E135.40829
G1 X52.14 Y114.07 E135.42006
G1 X51.44 Y114.07 E135.43183
G1 X50.73 Y114.07 E135.44360
G1 X50.02 Y114.07 E135.45537
G1 X49.31 Y114.07 E135.46714
G1 X48.61 Y114.07 E135.47891
G1 X47.90 Y114.07 E135.49068
G1 X47.19 Y114.07 E135.50243
G1 X46.48 Y114.07 E135.51420
G1 X45.78 Y114.07 E135.52597
G1 X45.07 Y114.07 E135.53774
G1 X44.36 Y114.07 E135.54951
G1 X43.66 Y114.07 E135.56128
G1 X42.95 Y114.07 E135.57305
G1 X42.24 Y114.07 E135.58482
G1 X41.54 Y114.07 E135.59659
G1 X40.83 Y114.07 E135.60834
G1 X40.12 Y114.07 E135.62008
G1 X39.41 Y114.07 E135.63185
G1 X38.71 Y114.07 E135.64362
G1 X38.31 Y113.67 E135.65678
G1 X38.31 Y112.96 E135.66861
G1 X38.31 Y112.26 E135.68045
G1 X38.31 Y111.55 E135.69229
G1 X38.31 Y110.84 E135.70412
G1 X38.31 Y110.14 E135.71596
G1 X38.31 Y109.43 E135.72778
G1 X38.31 Y108.72 E135.73962
G1 X38.31 Y108.01 E135.75145
G1 X38.31 Y107.31 E135.76329
