;Generated with Cura_SteamEngine 13.06.4
M140 S50.000000
M109 T0 S195.000000
T0
M190 S50.000000
;Sliced at: Sat 07 Sep 2013 19:09:01
;Basic settings: Layer height: 0.4 Walls: 1 Fill: 20
;Print time: #P_TIME#
;Filament used: #F_AMNT#m #F_WGHT#g
;Filament cost: #F_COST#
G21        ;metric values
G90        ;absolute positioning
M107       ;start with the fan off
;M92 X64.8592 ; calibrate X
M92 X62.4364 ; calibrate X
;M92 Y64.8592 ; calibrate Y
M92 Y61.7272 ; calibrate Y
M92 Z2387.0719 ; calibrate Z
M92 E569 ; calibrate E
G28 X0 Y0  ;move X/Y to min endstops
G28 Z0     ;move Z to min endstops
G1 Z15.0 F9000 ;move the platform down 15mm
G92 E0                  ;zero the extruded length
G1 F200 E3              ;extrude 3mm of feed stock
G92 E0                  ;zero the extruded length again
G1 F9000
M117 Printing...

;total_layers=13
;LAYER:0
M107
G0 F2520 X34.71 Y48.08 Z0.30
;TYPE:SKIRT
G1 F1140 X135.29 Y48.08 E2.36512
G1 X139.54 Y52.33 E2.50633
G1 X139.54 Y117.67 E4.04285
G1 X135.29 Y121.92 E4.18407
G1 X34.71 Y121.92 E6.54919
G1 X30.46 Y117.67 E6.69040
G1 X30.46 Y52.33 E8.22692
G1 X34.71 Y48.08 E8.36811
G0 F2520 X34.91 Y48.58
G1 F1140 X135.09 Y48.58 E10.72345
G1 X139.04 Y52.53 E10.85495
G1 X139.04 Y117.47 E12.38168
G1 X135.09 Y121.42 E12.51319
G1 X34.91 Y121.42 E14.86854
G1 X30.96 Y117.47 E15.00003
G1 X30.96 Y52.53 E16.52677
G1 X34.91 Y48.58 E16.65825
G0 F2520 X35.12 Y49.08
G1 F1140 X134.88 Y49.08 E19.00386
G1 X138.54 Y52.74 E19.12561
G1 X138.54 Y117.26 E20.64261
G1 X134.88 Y120.92 E20.76438
G1 X35.12 Y120.92 E23.10999
G1 X31.46 Y117.26 E23.23174
G1 X31.46 Y52.74 E24.74874
G1 X35.12 Y49.08 E24.87048
G0 F2520 X35.33 Y49.58
G1 F1140 X134.67 Y49.58 E27.20635
G1 X138.04 Y52.95 E27.31836
G1 X138.04 Y117.05 E28.82563
G1 X134.67 Y120.42 E28.93766
G1 X35.33 Y120.42 E31.27353
G1 X31.96 Y117.05 E31.38554
G1 X31.96 Y52.95 E32.89281
G1 X35.33 Y49.58 E33.00480
G0 F2520 X35.53 Y50.08
G1 F1140 X134.46 Y50.08 E35.33094
G1 X137.54 Y53.16 E35.43321
G1 X137.54 Y116.84 E36.93074
G1 X134.46 Y119.92 E37.03303
G1 X35.53 Y119.92 E39.35916
G1 X32.46 Y116.84 E39.46143
G1 X32.46 Y53.16 E40.95896
G1 X35.53 Y50.08 E41.06122
G0 F2520 X35.74 Y50.58
G1 F1140 X134.26 Y50.58 E43.37762
G1 X137.04 Y53.36 E43.47014
G1 X137.04 Y116.64 E44.95794
G1 X134.26 Y119.42 E45.05048
G1 X35.74 Y119.42 E47.36689
G1 X32.96 Y116.64 E47.45941
G1 X32.96 Y53.36 E48.94721
G1 X35.74 Y50.58 E49.03972
G0 F2520 X35.95 Y51.08
G1 F1140 X134.05 Y51.08 E51.34639
G1 X136.54 Y53.57 E51.42917
G1 X136.54 Y116.43 E52.90723
G1 X134.05 Y118.92 E52.99003
G1 X35.95 Y118.92 E55.29670
G1 X33.46 Y116.43 E55.37948
G1 X33.46 Y53.57 E56.85754
G1 X35.95 Y51.08 E56.94031
G0 F2520 X36.16 Y51.58
G1 F1140 X133.84 Y51.58 E59.23724
G1 X136.04 Y53.78 E59.31028
G1 X136.04 Y116.22 E60.77861
G1 X133.84 Y118.42 E60.85167
G1 X36.16 Y118.42 E63.14860
G1 X33.96 Y116.22 E63.22164
G1 X33.96 Y53.78 E64.68997
G1 X36.16 Y51.58 E64.76299
G0 F2520 X36.36 Y52.08
G1 F1140 X133.64 Y52.08 E67.05019
G1 X135.54 Y53.98 E67.11349
G1 X135.54 Y116.02 E68.57208
G1 X133.64 Y117.92 E68.63540
G1 X36.36 Y117.92 E70.92259
G1 X34.46 Y116.02 E70.98589
G1 X34.46 Y53.98 E72.44448
G1 X36.36 Y52.08 E72.50776
G0 F2520 X36.57 Y52.58
G1 F1140 X133.43 Y52.58 E74.78523
G1 X135.04 Y54.19 E74.83878
G1 X135.04 Y115.81 E76.28764
G1 X133.43 Y117.42 E76.34121
G1 X36.57 Y117.42 E78.61868
G1 X34.96 Y115.81 E78.67223
G1 X34.96 Y54.19 E80.12109
G1 X36.57 Y52.58 E80.17463
G0 F2520 X36.78 Y53.08
G1 F1140 X133.22 Y53.08 E82.44231
G1 X134.54 Y54.40 E82.48615
G1 X134.54 Y115.60 E83.92523
G1 X133.22 Y116.92 E83.96909
G1 X36.78 Y116.92 E86.23678
G1 X35.46 Y115.60 E86.28062
G1 X35.46 Y54.40 E87.71970
G1 X36.78 Y53.08 E87.76352
G0 F2520 X36.98 Y53.58
G1 F1140 X133.01 Y53.58 E90.02147
G1 X134.04 Y54.60 E90.05557
G1 X134.04 Y115.39 E91.48492
G1 X133.01 Y116.42 E91.51903
G1 X36.98 Y116.42 E93.77698
G1 X35.96 Y115.39 E93.81108
G1 X35.96 Y54.60 E95.24043
G1 X36.98 Y53.58 E95.27451
G0 F2520 X37.19 Y54.08
G1 F1140 X132.81 Y54.08 E97.52273
G1 X133.54 Y54.81 E97.54708
G1 X133.54 Y115.19 E98.96669
G1 X132.81 Y115.92 E98.99107
G1 X37.19 Y115.92 E101.23928
G1 X36.46 Y115.19 E101.26364
G1 X36.46 Y54.81 E102.68325
G1 X37.19 Y54.08 E102.70759
G0 F2520 X37.40 Y54.58
G1 F1140 X132.60 Y54.58 E104.94607
G1 X133.04 Y55.02 E104.96068
G1 X133.04 Y114.98 E106.37056
G1 X132.60 Y115.42 E106.38519
G1 X37.40 Y115.42 E108.62367
G1 X36.96 Y114.98 E108.63828
G1 X36.96 Y55.02 E110.04816
G1 X37.40 Y54.58 E110.06276
G0 F2520 X37.61 Y55.08
G1 F1140 X132.39 Y55.08 E112.29150
G1 X132.54 Y55.23 E112.29637
G1 X132.54 Y114.77 E113.69651
G1 X132.39 Y114.92 E113.70140
G1 X37.61 Y114.92 E115.93015
G1 X37.46 Y114.77 E115.93502
G1 X37.46 Y55.23 E117.33516
G1 X37.61 Y55.08 E117.34001
G0 F2520 X38.46 Y56.08
;TYPE:WALL-INNER
G1 F1140 X131.54 Y56.08 E119.52862
G1 X131.54 Y113.92 E120.88862
G1 X38.46 Y113.92 E123.07723
G1 X38.46 Y56.08 E124.43724
G0 F2520 X50.40 Y68.25
G1 F1140 X49.96 Y68.69 E124.45183
G1 X49.96 Y101.31 E125.21895
G1 X50.40 Y101.75 E125.23357
G1 X54.02 Y101.75 E125.31871
G1 X54.46 Y101.31 E125.33334
G1 X54.46 Y68.69 E126.10046
G1 X54.02 Y68.25 E126.11507
G1 X50.40 Y68.25 E126.20021
G0 F2520 X53.99 Y68.31
G0 X55.96 Y68.69
G1 F1140 X55.96 Y101.31 E126.96733
G1 X56.40 Y101.75 E126.98195
G1 X60.02 Y101.75 E127.06709
G1 X60.46 Y101.31 E127.08172
G1 X60.46 Y68.69 E127.84884
G1 X60.02 Y68.25 E127.86345
G1 X56.40 Y68.25 E127.94859
G1 X55.96 Y68.69 E127.96319
G0 F2520 X56.43 Y68.31
G0 X59.99 Y68.31
G0 X61.96 Y68.69
G1 F1140 X61.96 Y101.31 E128.73031
G1 X62.40 Y101.75 E128.74492
G1 X66.02 Y101.75 E128.83006
G1 X66.46 Y101.31 E128.84469
G1 X66.46 Y68.69 E129.61181
G1 X66.02 Y68.25 E129.62643
G1 X62.40 Y68.25 E129.71157
G1 X61.96 Y68.69 E129.72617
G0 F2520 X62.43 Y68.31
G0 X65.99 Y68.31
G0 X67.96 Y68.69
G1 F1140 X67.96 Y101.31 E130.49328
G1 X68.40 Y101.75 E130.50790
G1 X72.02 Y101.75 E130.59304
G1 X72.46 Y101.31 E130.60767
G1 X72.46 Y68.69 E131.37479
G1 X72.02 Y68.25 E131.38940
G1 X68.40 Y68.25 E131.47454
G1 X67.96 Y68.69 E131.48914
G0 F2520 X68.43 Y68.31
G0 X71.99 Y68.31
G0 X73.96 Y68.69
G1 F1140 X73.96 Y101.31 E132.25626
G1 X74.40 Y101.75 E132.27088
G1 X78.02 Y101.75 E132.35602
G1 X78.46 Y101.31 E132.37065
G1 X78.46 Y68.69 E133.13777
G1 X78.02 Y68.25 E133.15238
G1 X74.40 Y68.25 E133.23752
G1 X73.96 Y68.69 E133.25212
G0 F2520 X74.43 Y68.31
G0 X77.99 Y68.31
G0 X79.96 Y68.69
G1 F1140 X79.96 Y101.31 E134.01924
G1 X80.40 Y101.75 E134.03385
G1 X84.02 Y101.75 E134.11899
G1 X84.46 Y101.31 E134.13362
G1 X84.46 Y68.69 E134.90074
G1 X84.02 Y68.25 E134.91536
G1 X80.40 Y68.25 E135.00050
G1 X79.96 Y68.69 E135.01510
G0 F2520 X80.43 Y68.31
G0 X83.99 Y68.31
G0 X85.96 Y68.69
G1 F1140 X85.96 Y101.31 E135.78221
G1 X86.40 Y101.75 E135.79683
G1 X90.02 Y101.75 E135.88197
G1 X90.46 Y101.31 E135.89660
G1 X90.46 Y68.69 E136.66372
G1 X90.02 Y68.25 E136.67833
G1 X86.40 Y68.25 E136.76348
G1 X85.96 Y68.69 E136.77807
G0 F2520 X86.43 Y68.31
G0 X89.99 Y68.31
G0 X91.96 Y68.69
G1 F1140 X91.96 Y101.31 E137.54519
G1 X92.40 Y101.75 E137.55981
G1 X96.02 Y101.75 E137.64495
G1 X96.46 Y101.31 E137.65958
G1 X96.46 Y68.69 E138.42670
G1 X96.02 Y68.25 E138.44131
G1 X92.40 Y68.25 E138.52645
G1 X91.96 Y68.69 E138.54105
G0 F2520 X92.43 Y68.31
G0 X95.99 Y68.31
G0 X97.96 Y68.69
G1 F1140 X97.96 Y101.31 E139.30817
G1 X98.40 Y101.75 E139.32278
G1 X102.02 Y101.75 E139.40792
G1 X102.46 Y101.31 E139.42256
G1 X102.46 Y68.69 E140.18967
G1 X102.02 Y68.25 E140.20429
G1 X98.40 Y68.25 E140.28943
G1 X97.96 Y68.69 E140.30403
G0 F2520 X98.46 Y68.89
;TYPE:WALL-OUTER
G1 F1140 X98.46 Y101.10 E141.06141
G1 X98.61 Y101.25 E141.06628
G1 X101.81 Y101.25 E141.14169
G1 X101.96 Y101.10 E141.14658
G1 X101.96 Y68.89 E141.90396
G1 X101.81 Y68.75 E141.90883
G1 X98.61 Y68.75 E141.98424
G1 X98.46 Y68.89 E141.98909
G0 F2520 X98.11 Y68.89
G0 X96.21 Y68.65
G0 X95.96 Y68.89
G1 F1140 X95.81 Y68.75 E141.99397
G1 X92.61 Y68.75 E142.06937
G1 X92.46 Y68.89 E142.07423
G1 X92.46 Y101.10 E142.83161
G1 X92.61 Y101.25 E142.83648
G1 X95.81 Y101.25 E142.91189
G1 X95.96 Y101.10 E142.91678
G1 X95.96 Y68.89 E143.67416
G0 F2520 X96.21 Y68.65
G0 X95.99 Y68.31
G0 X92.43 Y68.31
G0 X90.21 Y68.65
G0 X89.96 Y68.89
G1 F1140 X89.81 Y68.75 E143.67903
G1 X86.61 Y68.75 E143.75444
G1 X86.46 Y68.89 E143.75929
G1 X86.46 Y101.10 E144.51668
G1 X86.61 Y101.25 E144.52155
G1 X89.81 Y101.25 E144.59696
G1 X89.96 Y101.10 E144.60184
G1 X89.96 Y68.89 E145.35923
G0 F2520 X90.21 Y68.65
G0 X89.99 Y68.31
G0 X86.43 Y68.31
G0 X84.21 Y68.65
G0 X83.96 Y68.89
G1 F1140 X83.81 Y68.75 E145.36410
G1 X80.61 Y68.75 E145.43951
G1 X80.46 Y68.89 E145.44436
G1 X80.46 Y101.10 E146.20174
G1 X80.61 Y101.25 E146.20662
G1 X83.81 Y101.25 E146.28202
G1 X83.96 Y101.10 E146.28691
G1 X83.96 Y68.89 E147.04429
G0 F2520 X84.21 Y68.65
G0 X83.99 Y68.31
G0 X80.43 Y68.31
G0 X78.21 Y68.65
G0 X77.96 Y68.89
G1 F1140 X77.81 Y68.75 E147.04917
G1 X74.61 Y68.75 E147.12457
G1 X74.46 Y68.89 E147.12943
G1 X74.46 Y101.10 E147.88681
G1 X74.61 Y101.25 E147.89168
G1 X77.81 Y101.25 E147.96709
G1 X77.96 Y101.10 E147.97198
G1 X77.96 Y68.89 E148.72936
G0 F2520 X78.21 Y68.65
G0 X77.99 Y68.31
G0 X74.43 Y68.31
G0 X72.21 Y68.65
G0 X71.96 Y68.89
G1 F1140 X71.81 Y68.75 E148.73423
G1 X68.61 Y68.75 E148.80964
G1 X68.46 Y68.89 E148.81449
G1 X68.46 Y101.10 E149.57188
G1 X68.61 Y101.25 E149.57675
G1 X71.81 Y101.25 E149.65216
G1 X71.96 Y101.10 E149.65704
G1 X71.96 Y68.89 E150.41443
G0 F2520 X72.21 Y68.65
G0 X71.99 Y68.31
G0 X68.43 Y68.31
G0 X66.21 Y68.65
G0 X65.96 Y68.89
G1 F1140 X65.81 Y68.75 E150.41930
G1 X62.61 Y68.75 E150.49471
G1 X62.46 Y68.89 E150.49956
G1 X62.46 Y101.10 E151.25694
G1 X62.61 Y101.25 E151.26182
G1 X65.81 Y101.25 E151.33722
G1 X65.96 Y101.10 E151.34211
G1 X65.96 Y68.89 E152.09949
G0 F2520 X66.21 Y68.65
G0 X65.99 Y68.31
G0 X62.43 Y68.31
G0 X60.21 Y68.65
G0 X59.96 Y68.89
G1 F1140 X59.81 Y68.75 E152.10437
G1 X56.61 Y68.75 E152.17977
G1 X56.46 Y68.89 E152.18463
G1 X56.46 Y101.10 E152.94201
G1 X56.61 Y101.25 E152.94688
G1 X59.81 Y101.25 E153.02229
G1 X59.96 Y101.10 E153.02718
G1 X59.96 Y68.89 E153.78456
G0 F2520 X60.21 Y68.65
G0 X59.99 Y68.31
G0 X56.43 Y68.31
G0 X54.21 Y68.65
G0 X53.96 Y68.89
G1 F1140 X53.81 Y68.75 E153.78943
G1 X50.61 Y68.75 E153.86484
G1 X50.46 Y68.89 E153.86970
G1 X50.46 Y101.10 E154.62708
G1 X50.61 Y101.25 E154.63195
G1 X53.81 Y101.25 E154.70736
G1 X53.96 Y101.10 E154.71225
G1 X53.96 Y68.89 E155.46963
G0 F2520 X54.21 Y68.65
G0 X38.31 Y55.84
G0 X37.96 Y55.58
G1 F1140 X132.04 Y55.58 E157.68175
G1 X132.04 Y114.42 E159.06527
G1 X37.96 Y114.42 E161.27739
G1 X37.96 Y55.58 E162.66090
G0 F2520 X38.82 Y56.25
;TYPE:FILL
G1 F1140 X50.63 Y68.07 E163.05383
G0 F2520 X50.13 Y68.27
G1 F1140 X38.63 Y56.78 E163.43596
G0 F2520 X38.63 Y57.49
G1 F1140 X49.79 Y68.64 E163.80687
G0 F2520 X49.78 Y69.34
G1 F1140 X38.63 Y58.19 E164.17766
G0 F2520 X38.63 Y58.90
G1 F1140 X49.78 Y70.05 E164.54844
G0 F2520 X49.78 Y70.76
G1 F1140 X38.63 Y59.61 E164.91924
G0 F2520 X38.63 Y60.31
G1 F1140 X49.78 Y71.47 E165.29004
G0 F2520 X49.78 Y72.17
G1 F1140 X38.63 Y61.02 E165.66084
G0 F2520 X38.63 Y61.73
G1 F1140 X49.78 Y72.88 E166.03163
G0 F2520 X49.78 Y73.59
G1 F1140 X38.63 Y62.44 E166.40241
G0 F2520 X38.63 Y63.14
G1 F1140 X49.78 Y74.29 E166.77320
G0 F2520 X49.78 Y75.00
G1 F1140 X38.63 Y63.85 E167.14398
G0 F2520 X38.63 Y64.56
G1 F1140 X49.78 Y75.71 E167.51476
G0 F2520 X49.78 Y76.41
G1 F1140 X38.63 Y65.26 E167.88555
G0 F2520 X38.63 Y65.97
G1 F1140 X49.78 Y77.12 E168.25635
G0 F2520 X49.78 Y77.83
G1 F1140 X38.63 Y66.68 E168.62715
G0 F2520 X38.63 Y67.39
G1 F1140 X49.78 Y78.54 E168.99795
G0 F2520 X49.78 Y79.24
G1 F1140 X38.63 Y68.09 E169.36875
G0 F2520 X38.63 Y68.80
G1 F1140 X49.78 Y79.95 E169.73954
G0 F2520 X49.78 Y80.66
G1 F1140 X38.63 Y69.51 E170.11032
G0 F2520 X38.63 Y70.21
G1 F1140 X49.78 Y81.36 E170.48110
G0 F2520 X49.78 Y82.07
G1 F1140 X38.63 Y70.92 E170.85189
G0 F2520 X38.63 Y71.63
G1 F1140 X49.78 Y82.78 E171.22267
G0 F2520 X49.78 Y83.48
G1 F1140 X38.63 Y72.33 E171.59346
G0 F2520 X38.63 Y73.04
G1 F1140 X49.78 Y84.19 E171.96426
G0 F2520 X49.78 Y84.90
G1 F1140 X38.63 Y73.75 E172.33506
G0 F2520 X38.63 Y74.46
G1 F1140 X49.78 Y85.61 E172.70586
G0 F2520 X49.78 Y86.31
G1 F1140 X38.63 Y75.16 E173.07664
G0 F2520 X38.63 Y75.87
G1 F1140 X49.78 Y87.02 E173.44743
G0 F2520 X49.78 Y87.73
G1 F1140 X38.63 Y76.58 E173.81821
G0 F2520 X38.63 Y77.28
G1 F1140 X49.78 Y88.44 E174.18899
G0 F2520 X49.78 Y89.14
G1 F1140 X38.63 Y77.99 E174.55978
G0 F2520 X38.63 Y78.70
G1 F1140 X49.78 Y89.85 E174.93056
G0 F2520 X49.78 Y90.56
G1 F1140 X38.63 Y79.41 E175.30136
G0 F2520 X38.63 Y80.11
G1 F1140 X49.78 Y91.26 E175.67216
G0 F2520 X49.78 Y91.97
G1 F1140 X38.63 Y80.82 E176.04296
G0 F2520 X38.63 Y81.53
G1 F1140 X49.78 Y92.68 E176.41376
G0 F2520 X49.78 Y93.39
G1 F1140 X38.63 Y82.23 E176.78455
G0 F2520 X38.63 Y82.94
G1 F1140 X49.78 Y94.09 E177.15533
G0 F2520 X49.78 Y94.80
G1 F1140 X38.63 Y83.65 E177.52612
G0 F2520 X38.63 Y84.36
G1 F1140 X49.78 Y95.51 E177.89690
G0 F2520 X49.78 Y96.21
G1 F1140 X38.63 Y85.06 E178.26768
G0 F2520 X38.63 Y85.77
G1 F1140 X49.78 Y96.92 E178.63848
G0 F2520 X49.78 Y97.63
G1 F1140 X38.63 Y86.48 E179.00929
G0 F2520 X38.63 Y87.18
G1 F1140 X49.78 Y98.33 E179.38009
G0 F2520 X49.78 Y99.04
G1 F1140 X38.63 Y87.89 E179.75089
G0 F2520 X38.63 Y88.60
G1 F1140 X49.78 Y99.75 E180.12167
G0 F2520 X49.78 Y100.46
G1 F1140 X38.63 Y89.31 E180.49245
G0 F2520 X38.63 Y90.01
G1 F1140 X49.78 Y101.16 E180.86324
G0 F2520 X50.55 Y101.93
G1 F1140 X62.37 Y113.74 E181.25627
G0 F2520 X61.66 Y113.74
G1 F1140 X38.63 Y90.72 E182.02190
G0 F2520 X38.63 Y91.43
G1 F1140 X60.95 Y113.74 E182.76400
G0 F2520 X60.24 Y113.74
G1 F1140 X38.63 Y92.13 E183.48259
G0 F2520 X38.63 Y92.84
G1 F1140 X59.54 Y113.74 E184.17767
G0 F2520 X58.83 Y113.74
G1 F1140 X38.63 Y93.55 E184.84924
G0 F2520 X38.63 Y94.25
G1 F1140 X58.12 Y113.74 E185.49730
G0 F2520 X57.42 Y113.74
G1 F1140 X38.63 Y94.96 E186.12183
G0 F2520 X38.63 Y95.67
G1 F1140 X56.71 Y113.74 E186.72286
G0 F2520 X56.00 Y113.74
G1 F1140 X38.63 Y96.38 E187.30038
G0 F2520 X38.63 Y97.08
G1 F1140 X55.30 Y113.74 E187.85438
G0 F2520 X54.59 Y113.74
G1 F1140 X38.63 Y97.79 E188.38486
G0 F2520 X38.63 Y98.50
G1 F1140 X53.88 Y113.74 E188.89183
G0 F2520 X53.17 Y113.74
G1 F1140 X38.63 Y99.20 E189.37529
G0 F2520 X38.63 Y99.91
G1 F1140 X52.47 Y113.74 E189.83524
G0 F2520 X51.76 Y113.74
G1 F1140 X38.63 Y100.62 E190.27169
G0 F2520 X38.63 Y101.33
G1 F1140 X51.05 Y113.74 E190.68462
G0 F2520 X50.34 Y113.74
G1 F1140 X38.63 Y102.03 E191.07402
G0 F2520 X38.63 Y102.74
G1 F1140 X49.64 Y113.74 E191.43992
G0 F2520 X48.93 Y113.74
G1 F1140 X38.63 Y103.45 E191.78230
G0 F2520 X38.63 Y104.16
G1 F1140 X48.22 Y113.74 E192.10116
G0 F2520 X47.52 Y113.74
G1 F1140 X38.63 Y104.86 E192.39652
G0 F2520 X38.63 Y105.57
G1 F1140 X46.81 Y113.74 E192.66836
G0 F2520 X46.10 Y113.74
G1 F1140 X38.63 Y106.28 E192.91669
G0 F2520 X38.63 Y106.98
G1 F1140 X45.40 Y113.74 E193.14151
G0 F2520 X44.69 Y113.74
G1 F1140 X38.63 Y107.69 E193.34282
G0 F2520 X38.63 Y108.40
G1 F1140 X43.98 Y113.74 E193.52061
G0 F2520 X43.27 Y113.74
G1 F1140 X38.63 Y109.11 E193.67488
G0 F2520 X38.63 Y109.81
G1 F1140 X42.57 Y113.74 E193.80565
G0 F2520 X41.86 Y113.74
G1 F1140 X38.63 Y110.52 E193.91290
G0 F2520 X38.63 Y111.23
G1 F1140 X41.15 Y113.74 E193.99663
G0 F2520 X40.45 Y113.74
G1 F1140 X38.63 Y111.93 E194.05685
G0 F2520 X38.63 Y112.64
G1 F1140 X39.74 Y113.74 E194.09357
G0 F2520 X39.03 Y113.74
G1 F1140 X38.63 Y113.35 E194.10677
G0 F2520 X51.25 Y101.93
G1 F1140 X63.07 Y113.74 E194.49980
G0 F2520 X63.78 Y113.74
G1 F1140 X51.96 Y101.93 E194.89281
G0 F2520 X52.67 Y101.93
G1 F1140 X64.49 Y113.74 E195.28582
